%
O55501 (Ken Demo)
(Using G0 which travels along dogleg path.)
(post version: 42601)
(post modified: 2019-12-04 06:35:42)
/ N10 M130(Net Share/Media/Initial Setup.mp4)(Press Cycle Start to continue.)
/ N15 M0
/ N20 M130(Net Share/Media/Part Fixturing.mov)(Press Cycle Start once complete)
/ N25 M0
/ N30 M130(Net Share/Media/Tool_setup_1_1.MOV)(Press Cycle Start to continue)
/ N35 M0
/ N40 M130(Net Share/Media/Tool_setup_1_2.MOV)(Press Cycle Start to continue)
/ N45 M0
/ N50 M130(Net Share/Media/Tool_setup_1_3.MOV)(Repeat these steps for each of your tools. Press Cycle Start to continue.)
/ N55 M0
(T1 D=1. CR=0.102 - ZMIN=5.2906 - face mill)
(T2 D=0.5 CR=0. - ZMIN=4.5406 - flat end mill)
(T3 D=0.25 CR=0. TAPER=140deg - ZMIN=4.4701 - drill)
(T20 D=0.2362 CR=0.1181 - ZMIN=5.1043 - probe)

/ N60 M130(Net Share/Media/Tool Probing.mov)(Press Cycle Start to continue)
/ N65 M0
(With BLOCK DELETE turned off each tool will cycle through)
(the spindle to verify that the correct tool is in the tool magazine)
(and to automatically measure it)
(Once the tools are verified turn BLOCK DELETE on to skip verification)
(T1 D=1. CR=0.102 - face mill)
/ N70 T1 M6
/ N75 M130(Net Share/Media/Tool_setup_1_4.MOV)(Insert KCN Stellram 1" then press Cycle Start)
/ N80 M0
/ N85 G65 P9023 A23. T1 H4.223 D1.
(T2 D=0.5 CR=0. - flat end mill)
/ N90 T2 M6
/ N95 M130(Net Share/Media/Tool_setup_1_4.MOV)(Insert KCN 1/2"D 1-1/4"FL then press Cycle Start)
/ N100 M0
/ N105 G65 P9023 A13. T2 H4.475 D0.5
(T3 D=0.25 CR=0. TAPER=140deg - drill)
/ N110 T3 M6
/ N115 M130(Net Share/Media/Tool_setup_1_4.MOV)(Insert KCN 1/4" Carbide 3xD then press Cycle Start)
/ N120 M0
/ N125 G65 P9023 A12. T3
/ N130 M0 (Operator Start Program)

N135 G90 G94 G17
N140 G20
N145 G53 G0 Z0.

(Probe WCS1 2)
(Approved by Morgan Burgett - 3/4/2020)
N150 T20 M6
(Stock Haas Probe)
N155 G55
N160 G0 X0. Y0.
N165 G43 Z11.5406 H20
N170 T1
N175 G65 P9832
N180 G65 P9810 Z5.5406 F10.
N185 G65 P9812 Z5.1043 X6. R0.4724 Q0.4 S1.
N190 G65 P9812 Z5.1043 Y2.5 R0.4724 Q0.4 S1.
N195 G65 P9810 Z5.5406
N200 G0 Z11.5406
N205 G65 P9833

(Probe WCS1 3)
N210 G0 X0. Y0.
N215 G65 P9832
N220 Z11.5406
N225 G65 P9810 Z5.5406 F10.
N230 G65 P9811 Z5.3406 Q0.4 S1.
N235 G65 P9810 Z5.5406
N240 G0 Z11.5406
N245 G65 P9833
N250 M5
N255 G53 G0 Z0.

(Face1 2)
N260 M1
N265 T1 M6
(DOC 0.1, Stepover 60%)
N270 S14801 M3
N275 G54
N280 M8
N285 G0 X3.65 Y-1.0907
N290 G43 Z6.3406 H1
N295 T2
N300 G1 Z5.3906 F207.22
N305 G18 G3 X3.55 Z5.2906 I-0.1 K0.
N310 G1 X3.
N315 X-3.
N320 G17 G2 Y-0.439 I0. J0.3258
N325 G1 X3.
N330 G3 Y0.2126 I0. J0.3258
N335 G1 X-3.
N340 G2 Y0.8643 I0. J0.3258
N345 G1 X3.
N350 G18 G2 X3.1 Z5.3906 I0. K0.1
N355 G0 Z6.3406
N360 M5
N365 G53 G0 Z0.

(2D Adaptive2)
N370 M9
N375 M1
N380 T2 M6
(No Face Milling. Avoid Ramp in Hard Materials & Maximize Flute Length Usage.)
N385 S14897 M3
N390 G54
N395 M8
N400 G17
N405 G0 X-3.0418 Y-1.7542
N410 G43 Z6.3406 H2
N415 T3
N420 G0 Z4.6406
N425 G1 Z4.5906 F111.727
N430 X-3.0417 Y-1.7539 Z4.585
N435 X-3.0415 Y-1.753 Z4.5794
N440 X-3.0411 Y-1.7515 Z4.574
N445 X-3.0405 Y-1.7494 Z4.5689
N450 X-3.0399 Y-1.7468 Z4.5639
N455 X-3.0391 Y-1.7437 Z4.5594
N460 X-3.0381 Y-1.7401 Z4.5552
N465 X-3.0371 Y-1.736 Z4.5515
N470 X-3.036 Y-1.7316 Z4.5482
N475 X-3.0347 Y-1.7268 Z4.5455
N480 X-3.0335 Y-1.7218 Z4.5434
N485 X-3.0321 Y-1.7166 Z4.5418
N490 X-3.0307 Y-1.7112 Z4.5409
N495 X-3.0294 Y-1.7058 Z4.5406
N500 G3 X-3. Y-1.5017 I-0.9274 J0.2376
N505 G1 Y-1.4983
N510 X-3.0376 Y-1.4599
N515 X-3.0691 Y-1.4162
N520 X-3.0947 Y-1.3689
N525 X-3.115 Y-1.3191
N530 X-3.1307 Y-1.2677
N535 X-3.1427 Y-1.2153
N540 X-3.1517 Y-1.1622
N545 X-3.1583 Y-1.1089
N550 X-3.1631 Y-1.0553
N555 X-3.1666 Y-1.0016
N560 X-3.1691 Y-0.9479
N565 X-3.1708 Y-0.8941
N570 X-3.1721 Y-0.8404
N575 X-3.1729 Y-0.7866
N580 X-3.1736 Y-0.7328
N585 X-3.174 Y-0.679
N590 X-3.1743 Y-0.6252
N595 X-3.1745 Y-0.5715
N600 X-3.1747 Y-0.5177
N605 X-3.1748 Y-0.4101
N610 X-3.1749 Y-0.2488
N615 X-3.175 Y0.2353
N620 Y0.4504
N625 Y1.0959
N630 X-3.168 Y1.1492
N635 X-3.148 Y1.1991
N640 X-3.1181 Y1.2438
N645 X-3.0806 Y1.2824
N650 X-3.0376 Y1.3147
N655 X-2.9908 Y1.3412
N660 X-2.9413 Y1.3622
N665 X-2.8901 Y1.3786
N670 X-2.8378 Y1.3911
N675 X-2.7848 Y1.4005
N680 X-2.7315 Y1.4075
N685 X-2.6779 Y1.4125
N690 X-2.6243 Y1.4162
N695 X-2.5705 Y1.4188
N700 X-2.5168 Y1.4206
N705 X-2.463 Y1.4219
N710 X-2.4093 Y1.4228
N715 X-2.3555 Y1.4235
N720 X-2.3017 Y1.4239
N725 X-2.2479 Y1.4243
N730 X-2.1941 Y1.4245
N735 X-2.1403 Y1.4246
N740 X-2.0328 Y1.4248
N745 X-1.979 Y1.4249
N750 X-1.7638 Y1.425
N755 X-0.2579
N760 X0.011
N765 X2.0011
N770 X2.8616
N775 X2.9142 Y1.4139
N780 X2.9628 Y1.3907
N785 X3.0057 Y1.3583
N790 X3.0425 Y1.3191
N795 X3.0731 Y1.2748
N800 X3.0978 Y1.2271
N805 X3.1174 Y1.177
N810 X3.1326 Y1.1254
N815 X3.1442 Y1.0729
N820 X3.1528 Y1.0198
N825 X3.1591 Y0.9664
N830 X3.1637 Y0.9128
N835 X3.167 Y0.8591
N840 X3.1694 Y0.8054
N845 X3.171 Y0.7516
N850 X3.1722 Y0.6978
N855 X3.173 Y0.6441
N860 X3.1736 Y0.5903
N865 X3.174 Y0.5365
N870 X3.1743 Y0.4827
N875 X3.1745 Y0.4289
N880 X3.1747 Y0.3751
N885 X3.1748 Y0.2676
N890 X3.1749 Y0.1062
N895 X3.175 Y-0.3778
N900 Y-1.077
N905 X3.1733 Y-1.1308
N910 X3.1575 Y-1.1822
N915 X3.1307 Y-1.2289
N920 X3.0957 Y-1.2696
N925 X3.0544 Y-1.3041
N930 X3.0088 Y-1.3326
N935 X2.9601 Y-1.3554
N940 X2.9094 Y-1.3734
N945 X2.8574 Y-1.3872
N950 X2.8046 Y-1.3976
N955 X2.7514 Y-1.4053
N960 X2.6979 Y-1.4109
N965 X2.6443 Y-1.415
N970 X2.5906 Y-1.4179
N975 X2.5368 Y-1.42
N980 X2.4831 Y-1.4215
N985 X2.4293 Y-1.4226
N990 X2.3755 Y-1.4233
N995 X2.3217 Y-1.4238
N1000 X2.2679 Y-1.4242
N1005 X2.2142 Y-1.4244
N1010 X2.1604 Y-1.4246
N1015 X2.0528 Y-1.4248
N1020 X1.8914 Y-1.4249
N1025 X1.515 Y-1.425
N1030 X0.8695
N1035 X-1.1205
N1040 X-2.734
N1045 X-2.7871 Y-1.4165
N1050 X-2.8374 Y-1.3975
N1055 X-2.8834 Y-1.3696
N1060 X-2.9242 Y-1.3346
N1065 X-2.9595 Y-1.294
N1070 X-2.9893 Y-1.2492
N1075 X-3.014 Y-1.2014
N1080 X-3.0339 Y-1.1514
N1085 X-3.0498 Y-1.1001
N1090 X-3.0623 Y-1.0477
N1095 X-3.0719 Y-0.9948
N1100 X-3.0792 Y-0.9415
N1105 X-3.0847 Y-0.888
N1110 X-3.0888 Y-0.8344
N1115 X-3.0919 Y-0.7807
N1120 X-3.0941 Y-0.727
N1125 X-3.0957 Y-0.6732
N1130 X-3.0969 Y-0.6194
N1135 X-3.0978 Y-0.5657
N1140 X-3.0984 Y-0.5119
N1145 X-3.0988 Y-0.4581
N1150 X-3.0992 Y-0.4043
N1155 X-3.0994 Y-0.3505
N1160 X-3.0996 Y-0.2968
N1165 X-3.0998 Y-0.1892
N1170 X-3.0999 Y-0.0278
N1175 X-3.1 Y0.3487
N1180 Y0.7789
N1185 Y0.9403
N1190 X-3.0944 Y0.9938
N1195 X-3.0798 Y1.0455
N1200 X-3.0565 Y1.094
N1205 X-3.0257 Y1.1381
N1210 X-2.9889 Y1.1773
N1215 X-2.9471 Y1.2113
N1220 X-2.9017 Y1.2401
N1225 X-2.8536 Y1.264
N1230 X-2.8034 Y1.2835
N1235 X-2.752 Y1.2991
N1240 X-2.6996 Y1.3114
N1245 X-2.6467 Y1.321
N1250 X-2.5934 Y1.3284
N1255 X-2.5399 Y1.334
N1260 X-2.4863 Y1.3382
N1265 X-2.4326 Y1.3414
N1270 X-2.3789 Y1.3437
N1275 X-2.3251 Y1.3454
N1280 X-2.2714 Y1.3467
N1285 X-2.2176 Y1.3476
N1290 X-2.1638 Y1.3483
N1295 X-2.11 Y1.3487
N1300 X-2.0562 Y1.3491
N1305 X-2.0025 Y1.3493
N1310 X-1.9487 Y1.3495
N1315 X-1.8411 Y1.3498
N1320 X-1.6797 Y1.3499
N1325 X-1.4646 Y1.35
N1330 X0.5254
N1335 X2.5154
N1340 X2.6768
N1345 X2.7305 Y1.3468
N1350 X2.7828 Y1.3344
N1355 X2.8322 Y1.3132
N1360 X2.8776 Y1.2842
N1365 X2.918 Y1.2488
N1370 X2.9533 Y1.2082
N1375 X2.9833 Y1.1635
N1380 X3.0084 Y1.116
N1385 X3.029 Y1.0663
N1390 X3.0455 Y1.0151
N1395 X3.0587 Y0.9629
N1400 X3.0689 Y0.9101
N1405 X3.0768 Y0.8569
N1410 X3.0828 Y0.8035
N1415 X3.0873 Y0.7499
N1420 X3.0907 Y0.6962
N1425 X3.0932 Y0.6425
N1430 X3.095 Y0.5887
N1435 X3.0964 Y0.535
N1440 X3.0974 Y0.4812
N1445 X3.0981 Y0.4274
N1450 X3.0986 Y0.3736
N1455 X3.099 Y0.3199
N1460 X3.0993 Y0.2661
N1465 X3.0995 Y0.2123
N1470 X3.0996 Y0.1585
N1475 X3.0998 Y0.0509
N1480 X3.0999 Y-0.1104
N1485 X3.1 Y-0.2718
N1490 Y-0.9172
N1495 X3.0984 Y-0.9709
N1500 X3.0877 Y-1.0237
N1505 X3.0681 Y-1.0737
N1510 X3.0404 Y-1.1198
N1515 X3.006 Y-1.1612
N1520 X2.9663 Y-1.1974
N1525 X2.9223 Y-1.2284
N1530 X2.8752 Y-1.2544
N1535 X2.8258 Y-1.2757
N1540 X2.7749 Y-1.2929
N1545 X2.7228 Y-1.3066
N1550 X2.6701 Y-1.3173
N1555 X2.617 Y-1.3255
N1560 X2.5636 Y-1.3318
N1565 X2.51 Y-1.3366
N1570 X2.4563 Y-1.3402
N1575 X2.4026 Y-1.3428
N1580 X2.3489 Y-1.3448
N1585 X2.2951 Y-1.3462
N1590 X2.2413 Y-1.3472
N1595 X2.1875 Y-1.348
N1600 X2.1338 Y-1.3486
N1605 X2.08 Y-1.349
N1610 X2.0262 Y-1.3492
N1615 X1.9724 Y-1.3495
N1620 X1.9186 Y-1.3496
N1625 X1.8111 Y-1.3498
N1630 X1.6497 Y-1.3499
N1635 X1.2732 Y-1.35
N1640 X-0.0176
N1645 X-2.0076
N1650 X-2.5455
N1655 X-2.5993 Y-1.3496
N1660 X-2.6525 Y-1.3422
N1665 X-2.704 Y-1.3266
N1670 X-2.7525 Y-1.3033
N1675 X-2.7969 Y-1.2729
N1680 X-2.8366 Y-1.2367
N1685 X-2.8715 Y-1.1958
N1690 X-2.9015 Y-1.1511
N1695 X-2.9268 Y-1.1036
N1700 X-2.9477 Y-1.0541
N1705 X-2.9648 Y-1.0031
N1710 X-2.9785 Y-0.9511
N1715 X-2.9894 Y-0.8984
N1720 X-2.998 Y-0.8453
N1725 X-3.0046 Y-0.792
N1730 X-3.0097 Y-0.7384
N1735 X-3.0135 Y-0.6848
N1740 X-3.0165 Y-0.6311
N1745 X-3.0187 Y-0.5773
N1750 X-3.0203 Y-0.5236
N1755 X-3.0215 Y-0.4698
N1760 X-3.0224 Y-0.416
N1765 X-3.0231 Y-0.3622
N1770 X-3.0236 Y-0.3085
N1775 X-3.024 Y-0.2547
N1780 X-3.0243 Y-0.2009
N1785 X-3.0245 Y-0.1471
N1790 X-3.0247 Y-0.0395
N1795 X-3.0249 Y0.1218
N1800 X-3.025 Y0.3907
N1805 Y0.7672
N1810 X-3.0245 Y0.821
N1815 X-3.0187 Y0.8745
N1820 X-3.0055 Y0.9266
N1825 X-2.9847 Y0.9762
N1830 X-2.957 Y1.0223
N1835 X-2.9231 Y1.0641
N1840 X-2.8842 Y1.1013
N1845 X-2.8413 Y1.1336
N1850 X-2.7951 Y1.1613
N1855 X-2.7467 Y1.1845
N1860 X-2.6964 Y1.2038
N1865 X-2.645 Y1.2194
N1870 X-2.5927 Y1.232
N1875 X-2.5398 Y1.242
N1880 X-2.4866 Y1.2498
N1885 X-2.4332 Y1.2559
N1890 X-2.3796 Y1.2606
N1895 X-2.3259 Y1.2642
N1900 X-2.2722 Y1.2669
N1905 X-2.2185 Y1.269
N1910 X-2.1647 Y1.2705
N1915 X-2.1109 Y1.2717
N1920 X-2.0572 Y1.2726
N1925 X-2.0034 Y1.2732
N1930 X-1.9496 Y1.2737
N1935 X-1.8958 Y1.274
N1940 X-1.842 Y1.2743
N1945 X-1.7883 Y1.2745
N1950 X-1.6807 Y1.2747
N1955 X-1.5193 Y1.2749
N1960 X-1.2504 Y1.275
N1965 X-0.2285
N1970 X1.7615
N1975 X2.5145
N1980 X2.5683 Y1.2746
N1985 X2.6218 Y1.2692
N1990 X2.674 Y1.2564
N1995 X2.7238 Y1.236
N2000 X2.7701 Y1.2086
N2005 X2.8121 Y1.175
N2010 X2.8495 Y1.1364
N2015 X2.8821 Y1.0936
N2020 X2.91 Y1.0476
N2025 X2.9334 Y0.9992
N2030 X2.9529 Y0.9491
N2035 X2.9687 Y0.8977
N2040 X2.9815 Y0.8454
N2045 X2.9916 Y0.7926
N2050 X2.9995 Y0.7394
N2055 X3.0057 Y0.686
N2060 X3.0104 Y0.6324
N2065 X3.0141 Y0.5787
N2070 X3.0168 Y0.525
N2075 X3.0189 Y0.4713
N2080 X3.0205 Y0.4175
N2085 X3.0216 Y0.3637
N2090 X3.0225 Y0.31
N2095 X3.0232 Y0.2562
N2100 X3.0236 Y0.2024
N2105 X3.024 Y0.1486
N2110 X3.0243 Y0.0948
N2115 X3.0245 Y0.041
N2120 X3.0247 Y-0.0665
N2125 X3.0249 Y-0.2279
N2130 X3.025 Y-0.4968
N2135 Y-0.7657
N2140 X3.0247 Y-0.8195
N2145 X3.0192 Y-0.873
N2150 X3.0062 Y-0.9252
N2155 X2.9857 Y-0.9749
N2160 X2.9582 Y-1.0211
N2165 X2.9245 Y-1.0631
N2170 X2.8858 Y-1.1004
N2175 X2.8429 Y-1.1329
N2180 X2.7968 Y-1.1606
N2185 X2.7484 Y-1.184
N2190 X2.6982 Y-1.2033
N2195 X2.6468 Y-1.2191
N2200 X2.5945 Y-1.2317
N2205 X2.5417 Y-1.2418
N2210 X2.4885 Y-1.2497
N2215 X2.435 Y-1.2558
N2220 X2.3815 Y-1.2606
N2225 X2.3278 Y-1.2642
N2230 X2.2741 Y-1.2669
N2235 X2.2203 Y-1.269
N2240 X2.1666 Y-1.2705
N2245 X2.1128 Y-1.2717
N2250 X2.059 Y-1.2725
N2255 X2.0052 Y-1.2732
N2260 X1.9515 Y-1.2737
N2265 X1.8977 Y-1.274
N2270 X1.8439 Y-1.2743
N2275 X1.7901 Y-1.2745
N2280 X1.6825 Y-1.2747
N2285 X1.5212 Y-1.2749
N2290 X1.2523 Y-1.275
N2295 X0.3917
N2300 X-1.5983
N2305 X-2.4051
N2310 X-2.4589 Y-1.2748
N2315 X-2.5125 Y-1.271
N2320 X-2.5653 Y-1.2606
N2325 X-2.6161 Y-1.2431
N2330 X-2.664 Y-1.2186
N2335 X-2.7082 Y-1.1879
N2340 X-2.748 Y-1.1518
N2345 X-2.7833 Y-1.1111
N2350 X-2.8139 Y-1.0669
N2355 X-2.8401 Y-1.0199
N2360 X-2.8621 Y-0.9709
N2365 X-2.8803 Y-0.9203
N2370 X-2.8953 Y-0.8686
N2375 X-2.9073 Y-0.8162
N2380 X-2.917 Y-0.7633
N2385 X-2.9246 Y-0.71
N2390 X-2.9305 Y-0.6566
N2395 X-2.9352 Y-0.603
N2400 X-2.9388 Y-0.5493
N2405 X-2.9415 Y-0.4956
N2410 X-2.9436 Y-0.4419
N2415 X-2.9452 Y-0.3881
N2420 X-2.9464 Y-0.3343
N2425 X-2.9473 Y-0.2806
N2430 X-2.948 Y-0.2268
N2435 X-2.9485 Y-0.173
N2440 X-2.9489 Y-0.1192
N2445 X-2.9492 Y-0.0654
N2450 X-2.9494 Y-0.0117
N2455 X-2.9495 Y0.0421
N2460 X-2.9498 Y0.1497
N2465 X-2.9499 Y0.311
N2470 X-2.95 Y0.6338
N2475 X-2.9497 Y0.6875
N2480 X-2.9465 Y0.7412
N2485 X-2.9375 Y0.7942
N2490 X-2.9217 Y0.8457
N2495 X-2.8991 Y0.8945
N2500 X-2.8702 Y0.9398
N2505 X-2.8357 Y0.9811
N2510 X-2.7966 Y1.018
N2515 X-2.7536 Y1.0503
N2520 X-2.7076 Y1.0782
N2525 X-2.6593 Y1.1019
N2530 X-2.6093 Y1.1216
N2535 X-2.558 Y1.138
N2540 X-2.5059 Y1.1513
N2545 X-2.4736 Y1.1579
N2550 X-2.455 Y1.1631
N2555 X-2.4374 Y1.1711
N2560 X-2.4212 Y1.1815
N2565 X-2.4194 Y1.1828
N2570 X-2.406 Y1.191
N2575 X-2.391 Y1.1996
N2580 X-2.376 Y1.2078
N2585 X-2.361 Y1.2143
N2590 X-2.346 Y1.2206
N2595 X-2.331 Y1.2261
N2600 X-2.316 Y1.2315
N2605 X-2.301 Y1.2362
N2610 X-2.2711 Y1.2427
N2615 X-2.2561 Y1.2447
N2620 X-2.2411 Y1.2467
N2625 X-2.2261 Y1.2482
N2630 X-2.1961 Y1.25
N2635 X2.1961
N2640 X2.2261 Y1.2482
N2645 X2.2411 Y1.2467
N2650 X2.2561 Y1.2447
N2655 X2.2711 Y1.2427
N2660 X2.301 Y1.2362
N2665 X2.3024 Y1.2357
N2670 X2.3112 Y1.2335
N2675 X2.3383 Y1.2277
N2680 X2.3748 Y1.2214
N2685 X2.4282 Y1.2145
N2690 X2.4816 Y1.2085
N2695 X2.5345 Y1.1986
N2700 X2.5859 Y1.1829
N2705 X2.6349 Y1.1608
N2710 X2.6807 Y1.1325
N2715 X2.7226 Y1.0988
N2720 X2.7602 Y1.0603
N2725 X2.7933 Y1.0179
N2730 X2.822 Y0.9725
N2735 X2.8465 Y0.9246
N2740 X2.8671 Y0.8749
N2745 X2.8842 Y0.8239
N2750 X2.8982 Y0.772
N2755 X2.9095 Y0.7194
N2760 X2.9186 Y0.6664
N2765 X2.9257 Y0.6131
N2770 X2.9314 Y0.5596
N2775 X2.9357 Y0.506
N2780 X2.9391 Y0.4523
N2785 X2.9418 Y0.3986
N2790 X2.9438 Y0.3448
N2795 X2.9453 Y0.2911
N2800 X2.9465 Y0.2373
N2805 X2.9473 Y0.1835
N2810 X2.948 Y0.1297
N2815 X2.9485 Y0.076
N2820 X2.9489 Y0.0222
N2825 X2.9492 Y-0.0316
N2830 X2.9494 Y-0.0854
N2835 X2.9495 Y-0.1392
N2840 X2.9497 Y-0.2467
N2845 X2.9499 Y-0.4081
N2850 X2.95 Y-0.6232
N2855 X2.9499 Y-0.677
N2860 X2.9477 Y-0.7308
N2865 X2.94 Y-0.784
N2870 X2.9256 Y-0.8358
N2875 X2.9043 Y-0.8852
N2880 X2.8766 Y-0.9313
N2885 X2.8432 Y-0.9734
N2890 X2.8048 Y-1.0112
N2895 X2.7625 Y-1.0444
N2900 X2.7171 Y-1.0731
N2905 X2.6692 Y-1.0976
N2910 X2.6195 Y-1.1181
N2915 X2.5684 Y-1.1351
N2920 X2.5165 Y-1.1489
N2925 X2.4718 Y-1.1584
N2930 X2.4538 Y-1.1637
N2935 X2.4367 Y-1.1715
N2940 X2.421 Y-1.1817
N2945 X2.4194 Y-1.1828
N2950 X2.406 Y-1.191
N2955 X2.391 Y-1.1996
N2960 X2.376 Y-1.2078
N2965 X2.361 Y-1.2143
N2970 X2.346 Y-1.2206
N2975 X2.331 Y-1.2261
N2980 X2.316 Y-1.2315
N2985 X2.301 Y-1.2362
N2990 X2.2711 Y-1.2427
N2995 X2.2561 Y-1.2447
N3000 X2.2411 Y-1.2467
N3005 X2.2261 Y-1.2482
N3010 X2.1961 Y-1.25
N3015 X-2.1961
N3020 X-2.2261 Y-1.2482
N3025 X-2.2411 Y-1.2467
N3030 X-2.2561 Y-1.2447
N3035 X-2.2711 Y-1.2427
N3040 X-2.301 Y-1.2362
N3045 X-2.3024 Y-1.2357
N3050 X-2.3119 Y-1.2333
N3055 X-2.3645 Y-1.2221
N3060 X-2.4173 Y-1.2119
N3065 X-2.4692 Y-1.1981
N3070 X-2.5195 Y-1.1789
N3075 X-2.5672 Y-1.1541
N3080 X-2.6116 Y-1.1237
N3085 X-2.6521 Y-1.0883
N3090 X-2.6885 Y-1.0487
N3095 X-2.7205 Y-1.0055
N3100 X-2.7483 Y-0.9595
N3105 X-2.7721 Y-0.9112
N3110 X-2.7922 Y-0.8613
N3115 X-2.8088 Y-0.8102
N3120 X-2.8225 Y-0.7582
N3125 X-2.8337 Y-0.7056
N3130 X-2.8427 Y-0.6525
N3135 X-2.8498 Y-0.5992
N3140 X-2.8555 Y-0.5457
N3145 X-2.86 Y-0.4921
N3150 X-2.8635 Y-0.4385
N3155 X-2.8662 Y-0.3848
N3160 X-2.8683 Y-0.331
N3165 X-2.8699 Y-0.2772
N3170 X-2.8711 Y-0.2235
N3175 X-2.872 Y-0.1697
N3180 X-2.8728 Y-0.1159
N3185 X-2.8733 Y-0.0621
N3190 X-2.8737 Y-0.0084
N3195 X-2.874 Y0.0454
N3200 X-2.8743 Y0.0992
N3205 X-2.8745 Y0.153
N3210 X-2.8747 Y0.2606
N3215 X-2.8749 Y0.4219
N3220 Y0.4757
N3225 Y0.5295
N3230 X-2.8744 Y0.5833
N3235 X-2.8712 Y0.637
N3240 X-2.8631 Y0.6901
N3245 X-2.8487 Y0.742
N3250 X-2.828 Y0.7916
N3255 X-2.8011 Y0.8382
N3260 X-2.7686 Y0.881
N3265 X-2.7313 Y0.9198
N3270 X-2.6899 Y0.9541
N3275 X-2.6453 Y0.9842
N3280 X-2.6263 Y0.9947
N3285 X-2.616 Y1.0011
N3290 X-2.6063 Y1.0084
N3295 X-2.5974 Y1.0165
N3300 X-2.491 Y1.1229
N3305 X-2.4809 Y1.1327
N3310 X-2.4756 Y1.1379
N3315 X-2.4659 Y1.1466
N3320 X-2.4509 Y1.1589
N3325 X-2.4315 Y1.1737
N3330 X-2.4212 Y1.1815
N3335 G3 X-2.4045 Y1.207 I-0.0315 J0.0388
N3340 G1 X-2.403 Y1.2124 Z4.5409
N3345 X-2.4015 Y1.2177 Z4.5418
N3350 X-2.4001 Y1.2229 Z4.5434
N3355 X-2.3987 Y1.2279 Z4.5455
N3360 X-2.3974 Y1.2327 Z4.5482
N3365 X-2.3962 Y1.2371 Z4.5515
N3370 X-2.3951 Y1.2411 Z4.5552
N3375 X-2.3941 Y1.2447 Z4.5594
N3380 X-2.3932 Y1.2478 Z4.5639
N3385 X-2.3925 Y1.2504 Z4.5689
N3390 X-2.3919 Y1.2525 Z4.574
N3395 X-2.3915 Y1.254 Z4.5794
N3400 X-2.3913 Y1.2549 Z4.585
N3405 X-2.3912 Y1.2552 Z4.5906
N3410 G0 Z6.3406
N3415 X-2.2432 Y-1.29
N3420 Z4.6406
N3425 G1 Z4.5906 F111.727
N3430 X-2.2434 Y-1.2898 Z4.585
N3435 X-2.2441 Y-1.2891 Z4.5794
N3440 X-2.2451 Y-1.2879 Z4.574
N3445 X-2.2465 Y-1.2864 Z4.5689
N3450 X-2.2484 Y-1.2843 Z4.5639
N3455 X-2.2505 Y-1.2819 Z4.5594
N3460 X-2.253 Y-1.2791 Z4.5552
N3465 X-2.2558 Y-1.276 Z4.5515
N3470 X-2.2589 Y-1.2726 Z4.5482
N3475 X-2.2622 Y-1.269 Z4.5455
N3480 X-2.2656 Y-1.2651 Z4.5434
N3485 X-2.2692 Y-1.2611 Z4.5418
N3490 X-2.2729 Y-1.257 Z4.5409
N3495 X-2.2767 Y-1.2529 Z4.5406
N3500 G3 X-2.3024 Y-1.2357 I-0.0463 J-0.0417
N3505 G1 X-2.316 Y-1.2315
N3510 X-2.331 Y-1.2261
N3515 X-2.346 Y-1.2206
N3520 X-2.361 Y-1.2143
N3525 X-2.376 Y-1.2078
N3530 X-2.391 Y-1.1996
N3535 X-2.406 Y-1.191
N3540 X-2.4194 Y-1.1828
N3545 X-2.421 Y-1.1817
N3550 X-2.4393 Y-1.1678
N3555 X-2.4509 Y-1.1589
N3560 X-2.4659 Y-1.1466
N3565 X-2.4756 Y-1.1379
N3570 X-2.5161 Y-1.1025
N3575 X-2.5545 Y-1.0648
N3580 X-2.59 Y-1.0244
N3585 X-2.5919 Y-1.0222
N3590 X-2.5939 Y-1.02
N3595 X-2.596 Y-1.0179
N3600 G3 X-2.6654 Y-1.0899 I-0.0341 J-0.0366
N3605 G1 X-2.5469 Y-1.208
N3610 G3 X-2.4756 Y-1.1379 I0.0353 J0.0354
N3615 G1 X-2.4809 Y-1.1327
N3620 X-2.491 Y-1.1229
N3625 X-2.6458 Y-0.9681
N3630 X-2.6555 Y-0.9582
N3635 X-2.6698 Y-0.9432
N3640 X-2.6819 Y-0.9283
N3645 X-2.6908 Y-0.917
N3650 X-2.6936 Y-0.9133
N3655 X-2.7043 Y-0.8983
N3660 X-2.7208 Y-0.8736
N3665 X-2.724 Y-0.8684
N3670 X-2.7381 Y-0.8384
N3675 X-2.7444 Y-0.8235
N3680 X-2.7508 Y-0.8077
N3685 X-2.7562 Y-0.7935
N3690 X-2.7608 Y-0.7785
N3695 X-2.7645 Y-0.7636
N3700 X-2.7692 Y-0.7336
N3705 X-2.7712 Y-0.7186
N3710 X-2.7745 Y-0.6887
N3715 X-2.7747 Y-0.6737
N3720 X-2.7781 Y-0.6201
N3725 X-2.7811 Y-0.5664
N3730 X-2.7841 Y-0.5127
N3735 X-2.7868 Y-0.4589
N3740 X-2.7892 Y-0.4052
N3745 X-2.7912 Y-0.3515
N3750 X-2.7929 Y-0.2977
N3755 X-2.7944 Y-0.2439
N3760 X-2.7955 Y-0.1902
N3765 X-2.7965 Y-0.1364
N3770 X-2.7973 Y-0.0826
N3775 X-2.7979 Y-0.0288
N3780 X-2.7983 Y0.025
N3785 X-2.7987 Y0.0787
N3790 X-2.799 Y0.1325
N3795 X-2.7992 Y0.1863
N3800 X-2.7994 Y0.2401
N3805 X-2.7997 Y0.3477
N3810 Y0.4014
N3815 X-2.7996 Y0.4552
N3820 X-2.798 Y0.509
N3825 X-2.7931 Y0.5625
N3830 X-2.7831 Y0.6154
N3835 X-2.7807 Y0.6232
N3840 X-2.7776 Y0.6353
N3845 X-2.7756 Y0.6476
N3850 X-2.7749 Y0.66
N3855 X-2.7745 Y0.6887
N3860 X-2.7712 Y0.7186
N3865 X-2.7692 Y0.7336
N3870 X-2.7645 Y0.7636
N3875 X-2.7608 Y0.7785
N3880 X-2.7562 Y0.7935
N3885 X-2.7504 Y0.8085
N3890 X-2.7444 Y0.8235
N3895 X-2.7381 Y0.8384
N3900 X-2.724 Y0.8684
N3905 X-2.7208 Y0.8736
N3910 X-2.7043 Y0.8983
N3915 X-2.6936 Y0.9133
N3920 X-2.6908 Y0.917
N3925 X-2.6819 Y0.9283
N3930 X-2.6698 Y0.9432
N3935 X-2.6555 Y0.9582
N3940 X-2.6458 Y0.9681
N3945 X-2.5974 Y1.0165
N3950 G3 X-2.5844 Y1.044 I-0.0366 J0.0341
N3955 G1 X-2.5837 Y1.0496 Z4.5409
N3960 X-2.5829 Y1.0551 Z4.5418
N3965 X-2.5822 Y1.0604 Z4.5434
N3970 X-2.5815 Y1.0655 Z4.5455
N3975 X-2.5809 Y1.0704 Z4.5482
N3980 X-2.5803 Y1.0749 Z4.5515
N3985 X-2.5797 Y1.0791 Z4.5552
N3990 X-2.5793 Y1.0828 Z4.5594
N3995 X-2.5788 Y1.086 Z4.5639
N4000 X-2.5785 Y1.0887 Z4.5689
N4005 X-2.5782 Y1.0908 Z4.574
N4010 X-2.578 Y1.0923 Z4.5794
N4015 X-2.5779 Y1.0933 Z4.585
N4020 X-2.5778 Y1.0936 Z4.5906
N4025 G0 Z6.3406
N4030 X-2.808 Y-0.7468
N4035 Z4.6406
N4040 G1 Z4.5906 F111.727
N4045 X-2.8079 Y-0.7465 Z4.585
N4050 X-2.8074 Y-0.7457 Z4.5794
N4055 X-2.8066 Y-0.7444 Z4.574
N4060 X-2.8055 Y-0.7425 Z4.5689
N4065 X-2.8042 Y-0.7402 Z4.5639
N4070 X-2.8026 Y-0.7374 Z4.5594
N4075 X-2.8007 Y-0.7341 Z4.5552
N4080 X-2.7986 Y-0.7305 Z4.5515
N4085 X-2.7963 Y-0.7266 Z4.5482
N4090 X-2.7939 Y-0.7223 Z4.5455
N4095 X-2.7913 Y-0.7178 Z4.5434
N4100 X-2.7886 Y-0.7131 Z4.5418
N4105 X-2.7858 Y-0.7084 Z4.5409
N4110 X-2.783 Y-0.7035 Z4.5406
N4115 G3 X-2.7747 Y-0.6737 I-0.054 J0.0311
N4120 G1 X-2.7749 Y-0.6588
N4125 X-2.775 Y-0.6438
N4130 Y0.6438
N4135 X-2.7749 Y0.66
N4140 G3 X-2.7848 Y0.6888 I-0.05 J-0.0011
N4145 G1 X-2.7881 Y0.6933 Z4.5409
N4150 X-2.7914 Y0.6977 Z4.5418
N4155 X-2.7946 Y0.7021 Z4.5434
N4160 X-2.7977 Y0.7062 Z4.5455
N4165 X-2.8007 Y0.7102 Z4.5482
N4170 X-2.8034 Y0.7138 Z4.5515
N4175 X-2.8059 Y0.7172 Z4.5552
N4180 X-2.8081 Y0.7202 Z4.5594
N4185 X-2.8101 Y0.7228 Z4.5639
N4190 X-2.8117 Y0.7249 Z4.5689
N4195 X-2.813 Y0.7267 Z4.574
N4200 X-2.8139 Y0.7279 Z4.5794
N4205 X-2.8144 Y0.7287 Z4.585
N4210 X-2.8146 Y0.7289 Z4.5906
N4215 G0 Z6.3406
N4220 X2.2432 Y1.29
N4225 Z4.6406
N4230 G1 Z4.5906 F111.727
N4235 X2.2434 Y1.2898 Z4.585
N4240 X2.2441 Y1.2891 Z4.5794
N4245 X2.2451 Y1.2879 Z4.574
N4250 X2.2465 Y1.2864 Z4.5689
N4255 X2.2484 Y1.2843 Z4.5639
N4260 X2.2505 Y1.2819 Z4.5594
N4265 X2.253 Y1.2791 Z4.5552
N4270 X2.2558 Y1.276 Z4.5515
N4275 X2.2589 Y1.2726 Z4.5482
N4280 X2.2622 Y1.269 Z4.5455
N4285 X2.2656 Y1.2651 Z4.5434
N4290 X2.2692 Y1.2611 Z4.5418
N4295 X2.2729 Y1.257 Z4.5409
N4300 X2.2767 Y1.2529 Z4.5406
N4305 G3 X2.3024 Y1.2357 I0.0463 J0.0417
N4310 G1 X2.316 Y1.2315
N4315 X2.331 Y1.2261
N4320 X2.346 Y1.2206
N4325 X2.361 Y1.2143
N4330 X2.376 Y1.2078
N4335 X2.391 Y1.1996
N4340 X2.3942 Y1.1977
N4345 X2.4901 Y1.1491
N4350 X2.5369 Y1.1225
N4355 X2.5813 Y1.0922
N4360 X2.6227 Y1.0579
N4365 X2.6606 Y1.0197
N4370 X2.6947 Y0.9781
N4375 X2.7249 Y0.9336
N4380 X2.7512 Y0.8867
N4385 X2.7738 Y0.8379
N4390 X2.793 Y0.7877
N4395 X2.8091 Y0.7363
N4400 X2.8224 Y0.6842
N4405 X2.8333 Y0.6316
N4410 X2.8422 Y0.5785
N4415 X2.8493 Y0.5252
N4420 X2.855 Y0.4717
N4425 X2.8595 Y0.4181
N4430 X2.863 Y0.3644
N4435 X2.8658 Y0.3107
N4440 X2.8679 Y0.257
N4445 X2.8696 Y0.2032
N4450 X2.8709 Y0.1495
N4455 X2.8718 Y0.0957
N4460 X2.8726 Y0.0419
N4465 X2.8732 Y-0.0119
N4470 X2.8736 Y-0.0657
N4475 X2.874 Y-0.1194
N4480 X2.8742 Y-0.1732
N4485 X2.8744 Y-0.227
N4490 X2.8747 Y-0.3346
N4495 X2.8749 Y-0.4959
N4500 X2.8748 Y-0.5497
N4505 X2.8737 Y-0.6035
N4510 X2.8689 Y-0.6571
N4515 X2.8586 Y-0.7098
N4520 X2.8419 Y-0.761
N4525 X2.8187 Y-0.8095
N4530 X2.7896 Y-0.8547
N4535 X2.7552 Y-0.8961
N4540 X2.7163 Y-0.9332
N4545 X2.6736 Y-0.9659
N4550 X2.628 Y-0.9944
N4555 X2.6165 Y-1.0012
N4560 X2.6059 Y-1.0089
N4565 X2.5962 Y-1.0177
N4570 X2.491 Y-1.1229
N4575 X2.4809 Y-1.1327
N4580 X2.4756 Y-1.1379
N4585 X2.4659 Y-1.1466
N4590 X2.4509 Y-1.1589
N4595 X2.4314 Y-1.1738
N4600 X2.421 Y-1.1817
N4605 G3 X2.4043 Y-1.2072 I0.0315 J-0.0388
N4610 G1 X2.4028 Y-1.2126 Z4.5409
N4615 X2.4013 Y-1.2179 Z4.5418
N4620 X2.3999 Y-1.2231 Z4.5434
N4625 X2.3985 Y-1.2281 Z4.5455
N4630 X2.3972 Y-1.2328 Z4.5482
N4635 X2.396 Y-1.2372 Z4.5515
N4640 X2.3949 Y-1.2412 Z4.5552
N4645 X2.3939 Y-1.2448 Z4.5594
N4650 X2.393 Y-1.248 Z4.5639
N4655 X2.3923 Y-1.2506 Z4.5689
N4660 X2.3917 Y-1.2526 Z4.574
N4665 X2.3913 Y-1.2541 Z4.5794
N4670 X2.3911 Y-1.255 Z4.585
N4675 X2.391 Y-1.2553 Z4.5906
N4680 G0 Z6.3406
N4685 X2.3481 Y1.2635
N4690 Z4.6406
N4695 G1 Z4.5906 F111.727
N4700 X2.3483 Y1.2633 Z4.585
N4705 X2.3487 Y1.2624 Z4.5794
N4710 X2.3495 Y1.2611 Z4.574
N4715 X2.3505 Y1.2592 Z4.5689
N4720 X2.3519 Y1.2569 Z4.5639
N4725 X2.3535 Y1.254 Z4.5594
N4730 X2.3553 Y1.2508 Z4.5552
N4735 X2.3574 Y1.2472 Z4.5515
N4740 X2.3596 Y1.2432 Z4.5482
N4745 X2.3621 Y1.2389 Z4.5455
N4750 X2.3646 Y1.2344 Z4.5434
N4755 X2.3673 Y1.2297 Z4.5418
N4760 X2.37 Y1.2249 Z4.5409
N4765 X2.3727 Y1.22 Z4.5406
N4770 G3 X2.3942 Y1.1977 I0.0542 J0.0307
N4775 G1 X2.406 Y1.191
N4780 X2.4194 Y1.1828
N4785 X2.421 Y1.1817
N4790 X2.4393 Y1.1678
N4795 X2.4509 Y1.1589
N4800 X2.4659 Y1.1466
N4805 X2.4756 Y1.1379
N4810 X2.4809 Y1.1327
N4815 X2.491 Y1.1229
N4820 X2.6458 Y0.9681
N4825 X2.6555 Y0.9582
N4830 X2.6698 Y0.9432
N4835 X2.6819 Y0.9283
N4840 X2.6908 Y0.917
N4845 X2.6936 Y0.9133
N4850 X2.7043 Y0.8983
N4855 X2.7208 Y0.8736
N4860 X2.724 Y0.8684
N4865 X2.7381 Y0.8384
N4870 X2.7444 Y0.8235
N4875 X2.7508 Y0.8077
N4880 X2.7562 Y0.7935
N4885 X2.7608 Y0.7785
N4890 X2.7645 Y0.7636
N4895 X2.7692 Y0.7336
N4900 X2.7712 Y0.7186
N4905 X2.7745 Y0.6887
N4910 X2.7749 Y0.6588
N4915 X2.778 Y0.6051
N4920 X2.7795 Y0.5513
N4925 X2.7819 Y0.4976
N4930 X2.7844 Y0.4438
N4935 X2.7868 Y0.3901
N4940 X2.7891 Y0.3364
N4945 X2.791 Y0.2826
N4950 X2.7927 Y0.2289
N4955 X2.7942 Y0.1751
N4960 X2.7953 Y0.1213
N4965 X2.7963 Y0.0676
N4970 X2.7971 Y0.0138
N4975 X2.7977 Y-0.04
N4980 X2.7982 Y-0.0938
N4985 X2.7986 Y-0.1476
N4990 X2.7989 Y-0.2013
N4995 X2.7992 Y-0.2551
N5000 X2.7994 Y-0.3089
N5005 X2.7995 Y-0.3627
N5010 X2.7996 Y-0.4165
N5015 X2.7993 Y-0.4703
N5020 X2.7971 Y-0.524
N5025 X2.791 Y-0.5774
N5030 X2.7793 Y-0.63
N5035 X2.7769 Y-0.6406
N5040 X2.7754 Y-0.6513
N5045 X2.7749 Y-0.6622
N5050 X2.7745 Y-0.6887
N5055 X2.7712 Y-0.7186
N5060 X2.7692 Y-0.7336
N5065 X2.7645 Y-0.7636
N5070 X2.7608 Y-0.7785
N5075 X2.7562 Y-0.7935
N5080 X2.7504 Y-0.8085
N5085 X2.7444 Y-0.8235
N5090 X2.7381 Y-0.8384
N5095 X2.724 Y-0.8684
N5100 X2.7208 Y-0.8736
N5105 X2.7043 Y-0.8983
N5110 X2.6936 Y-0.9133
N5115 X2.6908 Y-0.917
N5120 X2.6819 Y-0.9283
N5125 X2.6698 Y-0.9432
N5130 X2.6555 Y-0.9582
N5135 X2.6458 Y-0.9681
N5140 X2.5962 Y-1.0177
N5145 G3 X2.5832 Y-1.0452 I0.0366 J-0.0341
N5150 G1 X2.5825 Y-1.0508 Z4.5409
N5155 X2.5817 Y-1.0563 Z4.5418
N5160 X2.581 Y-1.0616 Z4.5434
N5165 X2.5803 Y-1.0667 Z4.5455
N5170 X2.5797 Y-1.0716 Z4.5482
N5175 X2.5791 Y-1.0761 Z4.5515
N5180 X2.5785 Y-1.0803 Z4.5552
N5185 X2.578 Y-1.084 Z4.5594
N5190 X2.5776 Y-1.0872 Z4.5639
N5195 X2.5773 Y-1.0899 Z4.5689
N5200 X2.577 Y-1.092 Z4.574
N5205 X2.5768 Y-1.0936 Z4.5794
N5210 X2.5766 Y-1.0945 Z4.585
N5215 Y-1.0948 Z4.5906
N5220 G0 Z6.3406
N5225 X2.8087 Y0.7316
N5230 Z4.6406
N5235 G1 Z4.5906 F111.727
N5240 X2.8085 Y0.7314 Z4.585
N5245 X2.808 Y0.7306 Z4.5794
N5250 X2.8072 Y0.7292 Z4.574
N5255 X2.8062 Y0.7274 Z4.5689
N5260 X2.8048 Y0.725 Z4.5639
N5265 X2.8031 Y0.7222 Z4.5594
N5270 X2.8013 Y0.719 Z4.5552
N5275 X2.7991 Y0.7154 Z4.5515
N5280 X2.7968 Y0.7114 Z4.5482
N5285 X2.7944 Y0.7072 Z4.5455
N5290 X2.7917 Y0.7027 Z4.5434
N5295 X2.789 Y0.6981 Z4.5418
N5300 X2.7862 Y0.6933 Z4.5409
N5305 X2.7834 Y0.6885 Z4.5406
N5310 G3 X2.7749 Y0.6588 I0.0538 J-0.0315
N5315 G1 X2.775 Y0.6438
N5320 Y-0.6438
N5325 X2.7749 Y-0.6622
N5330 G3 X2.7847 Y-0.6909 I0.05 J0.0011
N5335 G1 X2.7881 Y-0.6954 Z4.5409
N5340 X2.7914 Y-0.6999 Z4.5418
N5345 X2.7946 Y-0.7042 Z4.5434
N5350 X2.7977 Y-0.7083 Z4.5455
N5355 X2.8006 Y-0.7123 Z4.5482
N5360 X2.8034 Y-0.7159 Z4.5515
N5365 X2.8059 Y-0.7193 Z4.5552
N5370 X2.8081 Y-0.7223 Z4.5594
N5375 X2.81 Y-0.7249 Z4.5639
N5380 X2.8116 Y-0.7271 Z4.5689
N5385 X2.8129 Y-0.7288 Z4.574
N5390 X2.8139 Y-0.73 Z4.5794
N5395 X2.8144 Y-0.7308 Z4.585
N5400 X2.8146 Y-0.731 Z4.5906
N5405 G0 Z6.3406

(2D Adaptive2 2)
N5410 G0 X-1.4575 Y1.4793
N5415 Z6.3406
N5420 Z4.9906
N5425 G1 Z4.9406 F111.727
N5430 X-1.4576 Y1.479 Z4.935
N5435 X-1.4578 Y1.4781 Z4.9294
N5440 X-1.4582 Y1.4766 Z4.924
N5445 X-1.4587 Y1.4745 Z4.9189
N5450 X-1.4594 Y1.4719 Z4.9139
N5455 X-1.4602 Y1.4687 Z4.9094
N5460 X-1.4611 Y1.4651 Z4.9052
N5465 X-1.4622 Y1.4611 Z4.9015
N5470 X-1.4633 Y1.4566 Z4.8982
N5475 X-1.4645 Y1.4519 Z4.8955
N5480 X-1.4658 Y1.4469 Z4.8934
N5485 X-1.4671 Y1.4416 Z4.8918
N5490 X-1.4685 Y1.4363 Z4.8909
N5495 X-1.4699 Y1.4309 Z4.8906
N5500 G3 X-1.4993 Y1.2267 I0.9274 J-0.2376
N5505 G1 Y1.2233
N5510 X-1.4946 Y1.2196
N5515 X-1.4896 Y1.2163
N5520 X-1.4844 Y1.2132
N5525 X-1.4782 Y1.2099
N5530 X-1.4705 Y1.2062
N5535 X-1.461 Y1.2022
N5540 X-1.4494 Y1.1977
N5545 X-1.435 Y1.1929
N5550 X-1.4172 Y1.1877
N5555 X-1.3948 Y1.1822
N5560 X-1.3659 Y1.1763
N5565 X-1.3509 Y1.1753
N5570 X-1.336 Y1.1772
N5575 X-1.3217 Y1.182
N5580 X-1.3086 Y1.1894
N5585 X-1.2971 Y1.1991
N5590 X-1.2877 Y1.2109
N5595 X-1.2807 Y1.2243
N5600 X-1.2764 Y1.2387
N5605 X-1.275 Y1.2537
N5610 G3 X-1.2953 Y1.2939 I-0.05 J0.
N5615 G1 X-1.547 Y1.4796
N5620 G3 X-1.6107 Y1.476 I-0.0297 J-0.0402
N5625 X-1.725 Y1.2258 I0.2441 J-0.2627
N5630 G1 Y1.2211
N5635 X-1.7249 Y1.2195
N5640 X-1.7199 Y1.2162
N5645 X-1.7147 Y1.2131
N5650 X-1.7085 Y1.2098
N5655 X-1.7007 Y1.2062
N5660 X-1.6912 Y1.2021
N5665 X-1.6795 Y1.1976
N5670 X-1.6285 Y1.1805
N5675 X-1.5777 Y1.1629
N5680 X-1.5265 Y1.1463
N5685 X-1.4964 Y1.1377
N5690 X-1.4744 Y1.1324
N5695 X-1.4583 Y1.1292
N5700 X-1.4426 Y1.1267
N5705 X-1.43 Y1.1253
N5710 X-1.4188 Y1.1244
N5715 X-1.4072 Y1.1241
N5720 X-1.3974
N5725 X-1.3888 Y1.1246
N5730 X-1.3759 Y1.1257
N5735 X-1.358 Y1.1288
N5740 X-1.3408 Y1.1348
N5745 X-1.3248 Y1.1436
N5750 X-1.3105 Y1.1548
N5755 X-1.2982 Y1.1683
N5760 X-1.2882 Y1.1836
N5765 X-1.281 Y1.2003
N5770 X-1.2765 Y1.218
N5775 X-1.275 Y1.2361
N5780 G3 X-1.3271 Y1.2843 I-0.05 J-0.0017
N5785 G1 X-1.6772 Y1.2693
N5790 G3 X-1.725 Y1.2211 I0.0021 J-0.05
N5795 G1 Y1.2048
N5800 X-1.7249 Y1.2036
N5805 X-1.721 Y1.1991
N5810 X-1.7162 Y1.194
N5815 X-1.7098 Y1.1878
N5820 X-1.7017 Y1.1806
N5825 X-1.6917 Y1.1724
N5830 X-1.6801 Y1.1637
N5835 X-1.6656 Y1.1536
N5840 X-1.6492 Y1.1432
N5845 X-1.6307 Y1.1324
N5850 X-1.6113 Y1.1222
N5855 X-1.5919 Y1.113
N5860 X-1.5725 Y1.1048
N5865 X-1.5537 Y1.0977
N5870 X-1.5356 Y1.0916
N5875 X-1.5184 Y1.0867
N5880 X-1.5022 Y1.0827
N5885 X-1.4863 Y1.0795
N5890 X-1.4716 Y1.0772
N5895 X-1.4574 Y1.0755
N5900 X-1.4458 Y1.0747
N5905 X-1.4338 Y1.0742
N5910 X-1.4226 Y1.0743
N5915 X-1.413 Y1.0748
N5920 X-1.4031 Y1.0756
N5925 X-1.3933 Y1.0769
N5930 X-1.3848 Y1.0783
N5935 X-1.3768 Y1.0801
N5940 X-1.3679 Y1.0823
N5945 X-1.3669 Y1.0826
N5950 X-1.3498 Y1.0891
N5955 X-1.3337 Y1.098
N5960 X-1.3191 Y1.109
N5965 X-1.3062 Y1.122
N5970 X-1.2953 Y1.1367
N5975 X-1.2865 Y1.1528
N5980 X-1.2802 Y1.17
N5985 X-1.2763 Y1.1879
N5990 X-1.275 Y1.2061
N5995 G3 X-1.3252 Y1.2544 I-0.05 J-0.0017
N6000 G1 X-1.6752 Y1.253
N6005 G3 X-1.725 Y1.2048 I0.0002 J-0.05
N6010 G1 Y1.1792
N6015 X-1.7247 Y1.1739
N6020 X-1.7211 Y1.168
N6025 X-1.7165 Y1.1612
N6030 X-1.7115 Y1.1544
N6035 X-1.7055 Y1.1469
N6040 X-1.6989 Y1.1393
N6045 X-1.6913 Y1.1312
N6050 X-1.6827 Y1.1228
N6055 X-1.6735 Y1.1146
N6060 X-1.6632 Y1.1061
N6065 X-1.6519 Y1.0975
N6070 X-1.64 Y1.0891
N6075 X-1.6274 Y1.081
N6080 X-1.6141 Y1.0733
N6085 X-1.6003 Y1.0659
N6090 X-1.586 Y1.0591
N6095 X-1.5713 Y1.0528
N6100 X-1.5568 Y1.0472
N6105 X-1.5421 Y1.0423
N6110 X-1.5277 Y1.0381
N6115 X-1.5136 Y1.0346
N6120 X-1.4998 Y1.0318
N6125 X-1.4863 Y1.0296
N6130 X-1.4731 Y1.028
N6135 X-1.4603 Y1.027
N6140 X-1.4492 Y1.0265
N6145 X-1.4371 Y1.0266
N6150 X-1.4265 Y1.027
N6155 X-1.4168 Y1.0278
N6160 X-1.4062 Y1.0291
N6165 X-1.3971 Y1.0307
N6170 X-1.3884 Y1.0325
N6175 X-1.379 Y1.0349
N6180 X-1.3708 Y1.0373
N6185 X-1.3631 Y1.0399
N6190 X-1.3547 Y1.0432
N6195 X-1.3472 Y1.0464
N6200 X-1.3317 Y1.0553
N6205 X-1.3176 Y1.0663
N6210 X-1.3051 Y1.0792
N6215 X-1.2946 Y1.0937
N6220 X-1.2861 Y1.1095
N6225 X-1.28 Y1.1263
N6230 X-1.2763 Y1.1438
N6235 X-1.275 Y1.1617
N6240 G3 X-1.3225 Y1.2099 I-0.05 J-0.0017
N6245 G1 X-1.6725 Y1.2274
N6250 G3 X-1.725 Y1.1792 I-0.0025 J-0.0499
N6255 G1 Y1.1462
N6260 X-1.7247 Y1.1402
N6265 X-1.7222 Y1.1345
N6270 X-1.7193 Y1.1285
N6275 X-1.7159 Y1.1221
N6280 X-1.712 Y1.1155
N6285 X-1.7076 Y1.1086
N6290 X-1.7025 Y1.1013
N6295 X-1.6968 Y1.094
N6300 X-1.6906 Y1.0865
N6305 X-1.6836 Y1.0788
N6310 X-1.6758 Y1.0709
N6315 X-1.6675 Y1.0631
N6320 X-1.6586 Y1.0554
N6325 X-1.6489 Y1.0477
N6330 X-1.6385 Y1.0401
N6335 X-1.6275 Y1.0327
N6340 X-1.616 Y1.0257
N6345 X-1.604 Y1.019
N6350 X-1.5917 Y1.0128
N6355 X-1.5789 Y1.007
N6360 X-1.5659 Y1.0017
N6365 X-1.5528 Y0.997
N6370 X-1.5395 Y0.9928
N6375 X-1.5263 Y0.9893
N6380 X-1.5131 Y0.9863
N6385 X-1.5001 Y0.9839
N6390 X-1.4872 Y0.9821
N6395 X-1.4745 Y0.9808
N6400 X-1.462 Y0.9801
N6405 X-1.4498 Y0.9798
N6410 X-1.4377 Y0.9801
N6415 X-1.4263 Y0.9808
N6420 X-1.4162 Y0.9819
N6425 X-1.4052 Y0.9835
N6430 X-1.3956 Y0.9853
N6435 X-1.3867 Y0.9874
N6440 X-1.377 Y0.99
N6445 X-1.3687 Y0.9927
N6450 X-1.3608 Y0.9955
N6455 X-1.3522 Y0.999
N6460 X-1.3448 Y1.0025
N6465 X-1.3379 Y1.006
N6470 X-1.3224 Y1.0163
N6475 X-1.3086 Y1.0289
N6480 X-1.2969 Y1.0434
N6485 X-1.2875 Y1.0594
N6490 X-1.2806 Y1.0768
N6495 X-1.2764 Y1.0949
N6500 X-1.275 Y1.1135
N6505 G3 X-1.3203 Y1.1615 I-0.05 J-0.0017
N6510 G1 X-1.6704 Y1.1943
N6515 G3 X-1.725 Y1.1462 I-0.0047 J-0.0498
N6520 G1 Y1.1117
N6525 X-1.7247 Y1.1057
N6530 X-1.7231 Y1.0999
N6535 X-1.7212 Y1.0943
N6540 X-1.719 Y1.0887
N6545 X-1.7164 Y1.0827
N6550 X-1.7134 Y1.0765
N6555 X-1.71 Y1.0702
N6560 X-1.7061 Y1.0635
N6565 X-1.7016 Y1.0565
N6570 X-1.6967 Y1.0495
N6575 X-1.6912 Y1.0423
N6580 X-1.685 Y1.0349
N6585 X-1.6783 Y1.0275
N6590 X-1.6711 Y1.0201
N6595 X-1.6632 Y1.0128
N6600 X-1.6547 Y1.0054
N6605 X-1.6455 Y0.9981
N6610 X-1.6358 Y0.991
N6615 X-1.6256 Y0.9841
N6620 X-1.6149 Y0.9776
N6625 X-1.6037 Y0.9714
N6630 X-1.5922 Y0.9655
N6635 X-1.5802 Y0.9601
N6640 X-1.5678 Y0.9551
N6645 X-1.5552 Y0.9505
N6650 X-1.5424 Y0.9465
N6655 X-1.5294 Y0.943
N6660 X-1.5164 Y0.94
N6665 X-1.5033 Y0.9376
N6670 X-1.4904 Y0.9358
N6675 X-1.4776 Y0.9345
N6680 X-1.465 Y0.9338
N6685 X-1.4526 Y0.9335
N6690 X-1.4404 Y0.9338
N6695 X-1.4284 Y0.9345
N6700 X-1.4168 Y0.9358
N6705 X-1.4067 Y0.9372
N6710 X-1.3964 Y0.9392
N6715 X-1.3862 Y0.9415
N6720 X-1.3775 Y0.9439
N6725 X-1.3688 Y0.9467
N6730 X-1.3598 Y0.9499
N6735 X-1.352 Y0.9531
N6740 X-1.3447 Y0.9565
N6745 X-1.3367 Y0.9606
N6750 X-1.3215 Y0.9707
N6755 X-1.308 Y0.983
N6760 X-1.2965 Y0.9972
N6765 X-1.2872 Y1.013
N6770 X-1.2805 Y1.03
N6775 X-1.2764 Y1.0478
N6780 X-1.275 Y1.066
N6785 G3 X-1.3185 Y1.1138 I-0.05 J-0.0017
N6790 G1 X-1.6686 Y1.1595
N6795 G3 X-1.725 Y1.1117 I-0.0065 J-0.0496
N6800 G1 Y1.0727
N6805 X-1.7247 Y1.0667
N6810 X-1.7235 Y1.0608
N6815 X-1.7221 Y1.055
N6820 X-1.7203 Y1.0492
N6825 X-1.7183 Y1.0436
N6830 X-1.716 Y1.0378
N6835 X-1.7132 Y1.0318
N6840 X-1.71 Y1.0254
N6845 X-1.7064 Y1.0188
N6850 X-1.7023 Y1.0122
N6855 X-1.6977 Y1.0053
N6860 X-1.6926 Y0.9982
N6865 X-1.6869 Y0.991
N6870 X-1.6808 Y0.9839
N6875 X-1.6741 Y0.9767
N6880 X-1.6667 Y0.9694
N6885 X-1.6587 Y0.9622
N6890 X-1.6503 Y0.9551
N6895 X-1.6413 Y0.9482
N6900 X-1.6318 Y0.9414
N6905 X-1.6216 Y0.9348
N6910 X-1.611 Y0.9285
N6915 X-1.5998 Y0.9225
N6920 X-1.5882 Y0.9169
N6925 X-1.5763 Y0.9117
N6930 X-1.5641 Y0.9069
N6935 X-1.5515 Y0.9026
N6940 X-1.5388 Y0.8988
N6945 X-1.5258 Y0.8956
N6950 X-1.5128 Y0.8928
N6955 X-1.4997 Y0.8906
N6960 X-1.4868 Y0.889
N6965 X-1.4739 Y0.8879
N6970 X-1.4613 Y0.8873
N6975 X-1.4488
N6980 X-1.4365 Y0.8877
N6985 X-1.4246 Y0.8887
N6990 X-1.413 Y0.8901
N6995 X-1.403 Y0.8917
N7000 X-1.3923 Y0.8939
N7005 X-1.3825 Y0.8963
N7010 X-1.3741 Y0.8987
N7015 X-1.3649 Y0.9018
N7020 X-1.3563 Y0.9051
N7025 X-1.3489 Y0.9082
N7030 X-1.3412 Y0.9119
N7035 X-1.3249 Y0.9222
N7040 X-1.3104 Y0.9349
N7045 X-1.2981 Y0.9496
N7050 X-1.2882 Y0.9661
N7055 X-1.2809 Y0.9839
N7060 X-1.2765 Y1.0026
N7065 X-1.275 Y1.0218
N7070 G3 X-1.3178 Y1.0695 I-0.05 J-0.0017
N7075 G1 X-1.6678 Y1.1204
N7080 G3 X-1.725 Y1.0727 I-0.0072 J-0.0495
N7085 G1 Y1.0331
N7090 X-1.7247 Y1.0271
N7095 X-1.724 Y1.0211
N7100 X-1.7229 Y1.0152
N7105 X-1.7215 Y1.0094
N7110 X-1.7199 Y1.0036
N7115 X-1.7179 Y0.998
N7120 X-1.7157 Y0.9921
N7125 X-1.7131 Y0.9861
N7130 X-1.7101 Y0.98
N7135 X-1.7066 Y0.9736
N7140 X-1.7027 Y0.9669
N7145 X-1.6983 Y0.9601
N7150 X-1.6935 Y0.9533
N7155 X-1.6881 Y0.9462
N7160 X-1.682 Y0.939
N7165 X-1.6756 Y0.9319
N7170 X-1.6686 Y0.9248
N7175 X-1.661 Y0.9177
N7180 X-1.6527 Y0.9106
N7185 X-1.6439 Y0.9037
N7190 X-1.6346 Y0.8969
N7195 X-1.6248 Y0.8904
N7200 X-1.6145 Y0.8841
N7205 X-1.6037 Y0.8781
N7210 X-1.5924 Y0.8724
N7215 X-1.5807 Y0.8671
N7220 X-1.5685 Y0.8622
N7225 X-1.5561 Y0.8577
N7230 X-1.5434 Y0.8538
N7235 X-1.5305 Y0.8503
N7240 X-1.5174 Y0.8474
N7245 X-1.5044 Y0.845
N7250 X-1.4913 Y0.8432
N7255 X-1.4783 Y0.8419
N7260 X-1.4655 Y0.8412
N7265 X-1.4529 Y0.841
N7270 X-1.4404 Y0.8413
N7275 X-1.4283 Y0.8421
N7280 X-1.4169 Y0.8433
N7285 X-1.4069 Y0.8447
N7290 X-1.3959 Y0.8468
N7295 X-1.3863 Y0.8491
N7300 X-1.3778 Y0.8514
N7305 X-1.3684 Y0.8544
N7310 X-1.3598 Y0.8576
N7315 X-1.3523 Y0.8606
N7320 X-1.3444 Y0.8643
N7325 X-1.3366 Y0.8683
N7330 X-1.3214 Y0.8785
N7335 X-1.3079 Y0.8908
N7340 X-1.2964 Y0.905
N7345 X-1.2872 Y0.9208
N7350 X-1.2805 Y0.9378
N7355 X-1.2764 Y0.9556
N7360 X-1.275 Y0.9738
N7365 G3 X-1.3166 Y1.0214 I-0.05 J-0.0017
N7370 G1 X-1.6667 Y1.0806
N7375 G3 X-1.725 Y1.0331 I-0.0083 J-0.0493
N7380 G1 Y0.9881
N7385 X-1.7247 Y0.9821
N7390 X-1.7241 Y0.9762
N7395 X-1.7231 Y0.9703
N7400 X-1.7218 Y0.9644
N7405 X-1.7202 Y0.9586
N7410 X-1.7183 Y0.9529
N7415 X-1.7162 Y0.9472
N7420 X-1.7137 Y0.9412
N7425 X-1.7108 Y0.9351
N7430 X-1.7075 Y0.9288
N7435 X-1.7036 Y0.9221
N7440 X-1.6994 Y0.9154
N7445 X-1.6947 Y0.9086
N7450 X-1.6895 Y0.9016
N7455 X-1.6836 Y0.8945
N7460 X-1.6773 Y0.8874
N7465 X-1.6705 Y0.8803
N7470 X-1.6631 Y0.8733
N7475 X-1.6551 Y0.8662
N7480 X-1.6465 Y0.8592
N7485 X-1.6373 Y0.8524
N7490 X-1.6276 Y0.8458
N7495 X-1.6175 Y0.8394
N7500 X-1.6069 Y0.8334
N7505 X-1.5957 Y0.8276
N7510 X-1.5841 Y0.8222
N7515 X-1.5721 Y0.8172
N7520 X-1.5597 Y0.8126
N7525 X-1.5471 Y0.8085
N7530 X-1.5342 Y0.8049
N7535 X-1.5212 Y0.8019
N7540 X-1.5082 Y0.7993
N7545 X-1.4951 Y0.7974
N7550 X-1.4821 Y0.7959
N7555 X-1.4694 Y0.7951
N7560 X-1.4567 Y0.7947
N7565 X-1.4442 Y0.7949
N7570 X-1.432 Y0.7955
N7575 X-1.4201 Y0.7967
N7580 X-1.4092 Y0.7982
N7585 X-1.3992 Y0.7999
N7590 X-1.3884 Y0.8023
N7595 X-1.3792 Y0.8047
N7600 X-1.3707 Y0.8074
N7605 X-1.3615 Y0.8106
N7610 X-1.3534 Y0.8139
N7615 X-1.3461 Y0.8171
N7620 X-1.3381 Y0.8211
N7625 X-1.3226 Y0.8313
N7630 X-1.3087 Y0.8437
N7635 X-1.297 Y0.858
N7640 X-1.2875 Y0.874
N7645 X-1.2806 Y0.8913
N7650 X-1.2764 Y0.9093
N7655 X-1.275 Y0.9278
N7660 Y0.9738
N7665 G3 X-1.3229 Y1.022 I-0.05 J-0.0017
N7670 G1 X-1.673 Y1.0364
N7675 G3 X-1.725 Y0.9881 I-0.002 J-0.05
N7680 G1 Y0.9432
N7685 X-1.7247 Y0.9368
N7690 X-1.7241 Y0.9308
N7695 X-1.7232 Y0.9248
N7700 X-1.722 Y0.919
N7705 X-1.7204 Y0.9132
N7710 X-1.7186 Y0.9075
N7715 X-1.7165 Y0.9018
N7720 X-1.7141 Y0.8959
N7725 X-1.7113 Y0.8898
N7730 X-1.7081 Y0.8835
N7735 X-1.7044 Y0.877
N7740 X-1.7002 Y0.8702
N7745 X-1.6956 Y0.8634
N7750 X-1.6905 Y0.8566
N7755 X-1.6848 Y0.8495
N7760 X-1.6785 Y0.8423
N7765 X-1.6718 Y0.8352
N7770 X-1.6645 Y0.8282
N7775 X-1.6567 Y0.8212
N7780 X-1.6482 Y0.8142
N7785 X-1.6391 Y0.8074
N7790 X-1.6295 Y0.8007
N7795 X-1.6195 Y0.7943
N7800 X-1.6089 Y0.7882
N7805 X-1.5979 Y0.7824
N7810 X-1.5864 Y0.7769
N7815 X-1.5745 Y0.7719
N7820 X-1.5623 Y0.7672
N7825 X-1.5497 Y0.763
N7830 X-1.5369 Y0.7593
N7835 X-1.5239 Y0.7562
N7840 X-1.5108 Y0.7535
N7845 X-1.4977 Y0.7515
N7850 X-1.4847 Y0.7499
N7855 X-1.4717 Y0.7489
N7860 X-1.459 Y0.7485
N7865 X-1.4464
N7870 X-1.4341 Y0.7491
N7875 X-1.4221 Y0.7502
N7880 X-1.4111 Y0.7516
N7885 X-1.4011 Y0.7533
N7890 X-1.3902 Y0.7556
N7895 X-1.381 Y0.7579
N7900 X-1.3725 Y0.7605
N7905 X-1.3631 Y0.7637
N7910 X-1.355 Y0.7669
N7915 X-1.3477 Y0.7701
N7920 X-1.3396 Y0.7741
N7925 X-1.3322 Y0.778
N7930 X-1.3181 Y0.7879
N7935 X-1.3055 Y0.7998
N7940 X-1.2949 Y0.8134
N7945 X-1.2863 Y0.8284
N7950 X-1.2801 Y0.8445
N7955 X-1.2763 Y0.8614
N7960 X-1.275 Y0.8786
N7965 Y0.9278
N7970 G3 X-1.3228 Y0.976 I-0.05 J-0.0017
N7975 G1 X-1.6728 Y0.9914
N7980 G3 X-1.725 Y0.9432 I-0.0022 J-0.05
N7985 G1 Y0.8962
N7990 X-1.7247 Y0.8902
N7995 X-1.7241 Y0.8842
N8000 X-1.7232 Y0.8783
N8005 X-1.7219 Y0.8724
N8010 X-1.7204 Y0.8666
N8015 X-1.7186 Y0.8609
N8020 X-1.7165 Y0.8553
N8025 X-1.714 Y0.8494
N8030 X-1.7112 Y0.8432
N8035 X-1.7079 Y0.8369
N8040 X-1.7043 Y0.8305
N8045 X-1.7001 Y0.8237
N8050 X-1.6954 Y0.8168
N8055 X-1.6903 Y0.8099
N8060 X-1.6846 Y0.803
N8065 X-1.6784 Y0.7959
N8070 X-1.6716 Y0.7887
N8075 X-1.6642 Y0.7816
N8080 X-1.6564 Y0.7746
N8085 X-1.648 Y0.7677
N8090 X-1.639 Y0.7609
N8095 X-1.6294 Y0.7543
N8100 X-1.6192 Y0.7478
N8105 X-1.6086 Y0.7417
N8110 X-1.5975 Y0.7359
N8115 X-1.5861 Y0.7305
N8120 X-1.5742 Y0.7254
N8125 X-1.5619 Y0.7208
N8130 X-1.5493 Y0.7166
N8135 X-1.5365 Y0.7129
N8140 X-1.5234 Y0.7098
N8145 X-1.5103 Y0.7072
N8150 X-1.4973 Y0.7051
N8155 X-1.4842 Y0.7036
N8160 X-1.4712 Y0.7026
N8165 X-1.4585 Y0.7022
N8170 X-1.446
N8175 X-1.4337 Y0.7028
N8180 X-1.4218 Y0.7039
N8185 X-1.41 Y0.7054
N8190 X-1.3998 Y0.7072
N8195 X-1.3894 Y0.7094
N8200 X-1.3794 Y0.712
N8205 X-1.3709 Y0.7145
N8210 X-1.362 Y0.7176
N8215 X-1.3534 Y0.721
N8220 X-1.346 Y0.7243
N8225 X-1.3401 Y0.7271
N8230 X-1.3242 Y0.7366
N8235 X-1.31 Y0.7484
N8240 X-1.2978 Y0.7624
N8245 X-1.288 Y0.7781
N8250 X-1.2809 Y0.7951
N8255 X-1.2765 Y0.8131
N8260 X-1.275 Y0.8316
N8265 Y0.8786
N8270 G3 X-1.3225 Y0.9268 I-0.05 J-0.0017
N8275 G1 X-1.6725 Y0.9444
N8280 G3 X-1.725 Y0.8962 I-0.0025 J-0.0499
N8285 G1 Y0.8496
N8290 X-1.7247 Y0.8436
N8295 X-1.7241 Y0.8376
N8300 X-1.7232 Y0.8317
N8305 X-1.7219 Y0.8258
N8310 X-1.7203 Y0.82
N8315 X-1.7185 Y0.8143
N8320 X-1.7164 Y0.8087
N8325 X-1.7139 Y0.8028
N8330 X-1.711 Y0.7966
N8335 X-1.7078 Y0.7903
N8340 X-1.7041 Y0.7839
N8345 X-1.6999 Y0.7771
N8350 X-1.6952 Y0.7702
N8355 X-1.69 Y0.7633
N8360 X-1.6844 Y0.7564
N8365 X-1.6781 Y0.7492
N8370 X-1.6713 Y0.7421
N8375 X-1.6639 Y0.735
N8380 X-1.6561 Y0.728
N8385 X-1.6476 Y0.7211
N8390 X-1.6386 Y0.7143
N8395 X-1.629 Y0.7077
N8400 X-1.6188 Y0.7012
N8405 X-1.6081 Y0.6951
N8410 X-1.597 Y0.6893
N8415 X-1.5855 Y0.6839
N8420 X-1.5736 Y0.6789
N8425 X-1.5613 Y0.6743
N8430 X-1.5487 Y0.6701
N8435 X-1.5359 Y0.6665
N8440 X-1.5228 Y0.6633
N8445 X-1.5096 Y0.6607
N8450 X-1.4965 Y0.6587
N8455 X-1.4833 Y0.6572
N8460 X-1.4703 Y0.6562
N8465 X-1.4575 Y0.6558
N8470 X-1.4449 Y0.6559
N8475 X-1.4325 Y0.6565
N8480 X-1.4207 Y0.6576
N8485 X-1.41 Y0.659
N8490 X-1.3983 Y0.661
N8495 X-1.3883 Y0.6632
N8500 X-1.3794 Y0.6655
N8505 X-1.3696 Y0.6685
N8510 X-1.3609 Y0.6715
N8515 X-1.3533 Y0.6745
N8520 X-1.3452 Y0.6781
N8525 X-1.3371 Y0.6821
N8530 X-1.3218 Y0.692
N8535 X-1.3082 Y0.7041
N8540 X-1.2966 Y0.7182
N8545 X-1.2873 Y0.7338
N8550 X-1.2805 Y0.7507
N8555 X-1.2764 Y0.7685
N8560 X-1.275 Y0.7866
N8565 Y0.8316
N8570 G3 X-1.3224 Y0.8798 I-0.05 J-0.0017
N8575 G1 X-1.6725 Y0.8978
N8580 G3 X-1.725 Y0.8496 I-0.0026 J-0.0499
N8585 G1 Y0.8046
N8590 X-1.7247 Y0.7977
N8595 X-1.7241 Y0.7917
N8600 X-1.7232 Y0.7858
N8605 X-1.7219 Y0.7799
N8610 X-1.7204 Y0.7741
N8615 X-1.7186 Y0.7684
N8620 X-1.7165 Y0.7628
N8625 X-1.7141 Y0.7569
N8630 X-1.7112 Y0.7507
N8635 X-1.708 Y0.7445
N8640 X-1.7044 Y0.738
N8645 X-1.7002 Y0.7313
N8650 X-1.6955 Y0.7244
N8655 X-1.6905 Y0.7176
N8660 X-1.6848 Y0.7106
N8665 X-1.6786 Y0.7034
N8670 X-1.6718 Y0.6963
N8675 X-1.6645 Y0.6892
N8680 X-1.6567 Y0.6823
N8685 X-1.6483 Y0.6753
N8690 X-1.6392 Y0.6685
N8695 X-1.6296 Y0.6618
N8700 X-1.6195 Y0.6554
N8705 X-1.6089 Y0.6493
N8710 X-1.5979 Y0.6435
N8715 X-1.5864 Y0.638
N8720 X-1.5745 Y0.6329
N8725 X-1.5622 Y0.6283
N8730 X-1.5496 Y0.6241
N8735 X-1.5367 Y0.6204
N8740 X-1.5236 Y0.6172
N8745 X-1.5105 Y0.6145
N8750 X-1.4972 Y0.6124
N8755 X-1.484 Y0.6109
N8760 X-1.4711 Y0.6099
N8765 X-1.4581 Y0.6094
N8770 X-1.4455 Y0.6095
N8775 X-1.4331 Y0.6101
N8780 X-1.421 Y0.6111
N8785 X-1.4101 Y0.6125
N8790 X-1.3999 Y0.6143
N8795 X-1.3891 Y0.6166
N8800 X-1.38 Y0.6189
N8805 X-1.3713 Y0.6215
N8810 X-1.362 Y0.6247
N8815 X-1.354 Y0.6279
N8820 X-1.3467 Y0.6311
N8825 X-1.3386 Y0.635
N8830 X-1.3229 Y0.6451
N8835 X-1.309 Y0.6575
N8840 X-1.2972 Y0.6718
N8845 X-1.2876 Y0.6878
N8850 X-1.2807 Y0.705
N8855 X-1.2764 Y0.7231
N8860 X-1.275 Y0.7417
N8865 Y0.7866
N8870 G3 X-1.3224 Y0.8348 I-0.05 J-0.0017
N8875 G1 X-1.6725 Y0.8528
N8880 G3 X-1.725 Y0.8046 I-0.0026 J-0.0499
N8885 G1 Y0.7566
N8890 X-1.7247 Y0.7507
N8895 X-1.7241 Y0.7447
N8900 X-1.7231 Y0.7388
N8905 X-1.7218 Y0.7329
N8910 X-1.7202 Y0.7271
N8915 X-1.7184 Y0.7214
N8920 X-1.7163 Y0.7158
N8925 X-1.7138 Y0.7099
N8930 X-1.7109 Y0.7037
N8935 X-1.7076 Y0.6974
N8940 X-1.7039 Y0.6909
N8945 X-1.6997 Y0.6842
N8950 X-1.695 Y0.6773
N8955 X-1.6898 Y0.6703
N8960 X-1.6841 Y0.6634
N8965 X-1.6778 Y0.6563
N8970 X-1.6709 Y0.6491
N8975 X-1.6635 Y0.642
N8980 X-1.6556 Y0.635
N8985 X-1.6472 Y0.6281
N8990 X-1.6381 Y0.6213
N8995 X-1.6284 Y0.6147
N9000 X-1.6182 Y0.6083
N9005 X-1.6075 Y0.6021
N9010 X-1.5963 Y0.5963
N9015 X-1.5847 Y0.5909
N9020 X-1.5728 Y0.5859
N9025 X-1.5604 Y0.5813
N9030 X-1.5478 Y0.5772
N9035 X-1.5348 Y0.5735
N9040 X-1.5217 Y0.5704
N9045 X-1.5085 Y0.5678
N9050 X-1.4954 Y0.5658
N9055 X-1.4822 Y0.5643
N9060 X-1.4693 Y0.5634
N9065 X-1.4565 Y0.563
N9070 X-1.444 Y0.5631
N9075 X-1.4318 Y0.5638
N9080 X-1.4198 Y0.5649
N9085 X-1.4094 Y0.5663
N9090 X-1.3989 Y0.5681
N9095 X-1.3884 Y0.5704
N9100 X-1.3795 Y0.5727
N9105 X-1.3707 Y0.5754
N9110 X-1.3615 Y0.5786
N9115 X-1.3537 Y0.5818
N9120 X-1.3463 Y0.585
N9125 X-1.3434 Y0.5865
N9130 X-1.3287 Y0.5951
N9135 X-1.3153 Y0.6057
N9140 X-1.3035 Y0.618
N9145 X-1.2935 Y0.6318
N9150 X-1.2855 Y0.6469
N9155 X-1.2797 Y0.663
N9160 X-1.2762 Y0.6797
N9165 X-1.275 Y0.6967
N9170 Y0.7417
N9175 G3 X-1.3228 Y0.7899 I-0.05 J-0.0017
N9180 G1 X-1.6729 Y0.8049
N9185 G3 X-1.725 Y0.7566 I-0.0021 J-0.05
N9190 G1 Y0.7117
N9195 X-1.7247 Y0.7051
N9200 X-1.7241 Y0.6991
N9205 X-1.7232 Y0.6932
N9210 X-1.722 Y0.6873
N9215 X-1.7204 Y0.6815
N9220 X-1.7186 Y0.6758
N9225 X-1.7165 Y0.6702
N9230 X-1.7141 Y0.6642
N9235 X-1.7112 Y0.6581
N9240 X-1.708 Y0.6519
N9245 X-1.7044 Y0.6454
N9250 X-1.7002 Y0.6386
N9255 X-1.6955 Y0.6318
N9260 X-1.6905 Y0.6249
N9265 X-1.6848 Y0.6179
N9270 X-1.6785 Y0.6107
N9275 X-1.6717 Y0.6036
N9280 X-1.6645 Y0.5966
N9285 X-1.6566 Y0.5896
N9290 X-1.6482 Y0.5826
N9295 X-1.6391 Y0.5758
N9300 X-1.6295 Y0.5691
N9305 X-1.6194 Y0.5626
N9310 X-1.6088 Y0.5565
N9315 X-1.5977 Y0.5507
N9320 X-1.5862 Y0.5452
N9325 X-1.5743 Y0.5401
N9330 X-1.5619 Y0.5355
N9335 X-1.5493 Y0.5313
N9340 X-1.5364 Y0.5276
N9345 X-1.5233 Y0.5244
N9350 X-1.5103 Y0.5217
N9355 X-1.4972 Y0.5197
N9360 X-1.4841 Y0.5181
N9365 X-1.4712 Y0.5171
N9370 X-1.4584 Y0.5167
N9375 X-1.4458 Y0.5168
N9380 X-1.4336 Y0.5173
N9385 X-1.4221 Y0.5183
N9390 X-1.4115 Y0.5197
N9395 X-1.4003 Y0.5216
N9400 X-1.3908 Y0.5236
N9405 X-1.3813 Y0.5261
N9410 X-1.3719 Y0.5289
N9415 X-1.3638 Y0.5317
N9420 X-1.3554 Y0.535
N9425 X-1.3472 Y0.5386
N9430 X-1.3401 Y0.542
N9435 X-1.3241 Y0.5523
N9440 X-1.3099 Y0.565
N9445 X-1.2977 Y0.5797
N9450 X-1.288 Y0.596
N9455 X-1.2808 Y0.6137
N9460 X-1.2765 Y0.6322
N9465 X-1.275 Y0.6512
N9470 Y0.6967
N9475 G3 X-1.3228 Y0.7449 I-0.05 J-0.0017
N9480 G1 X-1.6729 Y0.7599
N9485 G3 X-1.725 Y0.7117 I-0.0021 J-0.05
N9490 G1 Y0.6643
N9495 X-1.7247 Y0.6583
N9500 X-1.7241 Y0.6523
N9505 X-1.7232 Y0.6464
N9510 X-1.7219 Y0.6405
N9515 X-1.7203 Y0.6347
N9520 X-1.7185 Y0.629
N9525 X-1.7164 Y0.6234
N9530 X-1.7139 Y0.6175
N9535 X-1.711 Y0.6113
N9540 X-1.7077 Y0.605
N9545 X-1.7041 Y0.5985
N9550 X-1.6998 Y0.5918
N9555 X-1.6951 Y0.5849
N9560 X-1.6899 Y0.5779
N9565 X-1.6843 Y0.571
N9570 X-1.678 Y0.5639
N9575 X-1.6712 Y0.5567
N9580 X-1.6638 Y0.5495
N9585 X-1.6559 Y0.5426
N9590 X-1.6474 Y0.5357
N9595 X-1.6384 Y0.5289
N9600 X-1.6287 Y0.5222
N9605 X-1.6185 Y0.5158
N9610 X-1.6078 Y0.5096
N9615 X-1.5967 Y0.5038
N9620 X-1.5851 Y0.4984
N9625 X-1.5732 Y0.4933
N9630 X-1.5609 Y0.4887
N9635 X-1.5483 Y0.4846
N9640 X-1.5354 Y0.4809
N9645 X-1.5224 Y0.4778
N9650 X-1.5094 Y0.4752
N9655 X-1.4962 Y0.4732
N9660 X-1.4832 Y0.4717
N9665 X-1.4704 Y0.4708
N9670 X-1.4577 Y0.4704
N9675 X-1.4453 Y0.4705
N9680 X-1.433 Y0.4711
N9685 X-1.4211 Y0.4722
N9690 X-1.4107 Y0.4736
N9695 X-1.4003 Y0.4754
N9700 X-1.3898 Y0.4777
N9705 X-1.3809 Y0.48
N9710 X-1.3722 Y0.4826
N9715 X-1.3629 Y0.4859
N9720 X-1.355 Y0.489
N9725 X-1.3476 Y0.4923
N9730 X-1.3394 Y0.4963
N9735 X-1.3236 Y0.5066
N9740 X-1.3095 Y0.5192
N9745 X-1.2975 Y0.5338
N9750 X-1.2878 Y0.55
N9755 X-1.2807 Y0.5675
N9760 X-1.2764 Y0.5859
N9765 X-1.275 Y0.6048
N9770 Y0.6512
N9775 G3 X-1.3231 Y0.6995 I-0.05 J-0.0017
N9780 G1 X-1.6732 Y0.7125
N9785 G3 X-1.725 Y0.6643 I-0.0019 J-0.05
N9790 G1 Y0.6173
N9795 X-1.7247 Y0.6113
N9800 X-1.7241 Y0.6053
N9805 X-1.7231 Y0.5994
N9810 X-1.7218 Y0.5935
N9815 X-1.7202 Y0.5878
N9820 X-1.7183 Y0.5821
N9825 X-1.7162 Y0.5764
N9830 X-1.7137 Y0.5705
N9835 X-1.7107 Y0.5643
N9840 X-1.7074 Y0.5579
N9845 X-1.7037 Y0.5515
N9850 X-1.6994 Y0.5447
N9855 X-1.6946 Y0.5378
N9860 X-1.6894 Y0.5308
N9865 X-1.6837 Y0.5239
N9870 X-1.6774 Y0.5167
N9875 X-1.6704 Y0.5096
N9880 X-1.663 Y0.5024
N9885 X-1.655 Y0.4955
N9890 X-1.6465 Y0.4886
N9895 X-1.6374 Y0.4818
N9900 X-1.6277 Y0.4752
N9905 X-1.6174 Y0.4688
N9910 X-1.6067 Y0.4627
N9915 X-1.5956 Y0.4569
N9920 X-1.584 Y0.4515
N9925 X-1.572 Y0.4465
N9930 X-1.5597 Y0.442
N9935 X-1.5471 Y0.4379
N9940 X-1.5343 Y0.4343
N9945 X-1.5212 Y0.4312
N9950 X-1.5082 Y0.4287
N9955 X-1.4951 Y0.4268
N9960 X-1.4821 Y0.4253
N9965 X-1.4693 Y0.4245
N9970 X-1.4567 Y0.4241
N9975 X-1.4442 Y0.4243
N9980 X-1.4321 Y0.4249
N9985 X-1.4202 Y0.4261
N9990 X-1.4098 Y0.4275
N9995 X-1.3993 Y0.4294
N10000 X-1.3889 Y0.4317
N10005 X-1.38 Y0.434
N10010 X-1.3712 Y0.4367
N10015 X-1.362 Y0.44
N10020 X-1.3541 Y0.4431
N10025 X-1.3467 Y0.4465
N10030 X-1.3386 Y0.4505
N10035 X-1.3229 Y0.4608
N10040 X-1.309 Y0.4733
N10045 X-1.2971 Y0.4878
N10050 X-1.2876 Y0.5039
N10055 X-1.2807 Y0.5212
N10060 X-1.2764 Y0.5394
N10065 X-1.275 Y0.5581
N10070 Y0.6048
N10075 G3 X-1.3232 Y0.653 I-0.05 J-0.0017
N10080 G1 X-1.6732 Y0.6655
N10085 G3 X-1.725 Y0.6173 I-0.0018 J-0.05
N10090 G1 Y0.5723
N10095 X-1.7247 Y0.5661
N10100 X-1.7241 Y0.5601
N10105 X-1.7232 Y0.5542
N10110 X-1.722 Y0.5483
N10115 X-1.7204 Y0.5425
N10120 X-1.7186 Y0.5368
N10125 X-1.7165 Y0.5311
N10130 X-1.7141 Y0.5252
N10135 X-1.7113 Y0.5191
N10140 X-1.7081 Y0.5129
N10145 X-1.7044 Y0.5063
N10150 X-1.7002 Y0.4996
N10155 X-1.6956 Y0.4928
N10160 X-1.6905 Y0.4859
N10165 X-1.6848 Y0.4789
N10170 X-1.6785 Y0.4717
N10175 X-1.6718 Y0.4646
N10180 X-1.6645 Y0.4576
N10185 X-1.6567 Y0.4506
N10190 X-1.6482 Y0.4436
N10195 X-1.6392 Y0.4367
N10200 X-1.6296 Y0.4301
N10205 X-1.6195 Y0.4237
N10210 X-1.609 Y0.4176
N10215 X-1.598 Y0.4118
N10220 X-1.5865 Y0.4063
N10225 X-1.5746 Y0.4013
N10230 X-1.5623 Y0.3966
N10235 X-1.5498 Y0.3924
N10240 X-1.537 Y0.3887
N10245 X-1.524 Y0.3856
N10250 X-1.5109 Y0.3829
N10255 X-1.4979 Y0.3809
N10260 X-1.4849 Y0.3793
N10265 X-1.472 Y0.3784
N10270 X-1.4593 Y0.3779
N10275 X-1.4467 Y0.378
N10280 X-1.4345 Y0.3785
N10285 X-1.4225 Y0.3796
N10290 X-1.4116 Y0.381
N10295 X-1.4015 Y0.3827
N10300 X-1.3907 Y0.385
N10305 X-1.3814 Y0.3874
N10310 X-1.3729 Y0.3899
N10315 X-1.3635 Y0.3932
N10320 X-1.3553 Y0.3964
N10325 X-1.348 Y0.3996
N10330 X-1.3399 Y0.4035
N10335 X-1.324 Y0.4138
N10340 X-1.3098 Y0.4264
N10345 X-1.2976 Y0.4411
N10350 X-1.2879 Y0.4574
N10355 X-1.2808 Y0.475
N10360 X-1.2765 Y0.4935
N10365 X-1.275 Y0.5124
N10370 Y0.5581
N10375 G3 X-1.3229 Y0.6063 I-0.05 J-0.0017
N10380 G1 X-1.673 Y0.6205
N10385 G3 X-1.725 Y0.5723 I-0.002 J-0.05
N10390 G1 Y0.5274
N10395 X-1.7246 Y0.5197
N10400 X-1.7241 Y0.5137
N10405 X-1.7232 Y0.5078
N10410 X-1.7219 Y0.5019
N10415 X-1.7204 Y0.4961
N10420 X-1.7185 Y0.4904
N10425 X-1.7165 Y0.4848
N10430 X-1.714 Y0.4789
N10435 X-1.7112 Y0.4727
N10440 X-1.708 Y0.4664
N10445 X-1.7043 Y0.46
N10450 X-1.7001 Y0.4533
N10455 X-1.6955 Y0.4464
N10460 X-1.6904 Y0.4395
N10465 X-1.6848 Y0.4325
N10470 X-1.6786 Y0.4254
N10475 X-1.6718 Y0.4183
N10480 X-1.6645 Y0.4112
N10485 X-1.6567 Y0.4042
N10490 X-1.6483 Y0.3973
N10495 X-1.6393 Y0.3905
N10500 X-1.6297 Y0.3839
N10505 X-1.6196 Y0.3774
N10510 X-1.609 Y0.3713
N10515 X-1.598 Y0.3655
N10520 X-1.5865 Y0.36
N10525 X-1.5747 Y0.355
N10530 X-1.5624 Y0.3504
N10535 X-1.5499 Y0.3462
N10540 X-1.5371 Y0.3425
N10545 X-1.5241 Y0.3393
N10550 X-1.511 Y0.3367
N10555 X-1.4979 Y0.3346
N10560 X-1.4849 Y0.3331
N10565 X-1.4719 Y0.3321
N10570 X-1.4592 Y0.3316
N10575 X-1.4467 Y0.3317
N10580 X-1.4344 Y0.3323
N10585 X-1.4225 Y0.3333
N10590 X-1.4118 Y0.3347
N10595 X-1.4015 Y0.3364
N10600 X-1.3908 Y0.3387
N10605 X-1.3818 Y0.341
N10610 X-1.3731 Y0.3436
N10615 X-1.3637 Y0.3469
N10620 X-1.3556 Y0.35
N10625 X-1.3483 Y0.3533
N10630 X-1.3401 Y0.3572
N10635 X-1.3241 Y0.3676
N10640 X-1.3099 Y0.3802
N10645 X-1.2977 Y0.3949
N10650 X-1.288 Y0.4112
N10655 X-1.2808 Y0.4289
N10660 X-1.2765 Y0.4475
N10665 X-1.275 Y0.4665
N10670 Y0.5124
N10675 G3 X-1.3228 Y0.5606 I-0.05 J-0.0017
N10680 G1 X-1.6729 Y0.5756
N10685 G3 X-1.725 Y0.5274 I-0.0021 J-0.05
N10690 G1 Y0.4787
N10695 X-1.7247 Y0.4727
N10700 X-1.7241 Y0.4667
N10705 X-1.7231 Y0.4608
N10710 X-1.7218 Y0.455
N10715 X-1.7203 Y0.4492
N10720 X-1.7184 Y0.4435
N10725 X-1.7163 Y0.4378
N10730 X-1.7139 Y0.432
N10735 X-1.7109 Y0.4257
N10740 X-1.7077 Y0.4194
N10745 X-1.704 Y0.413
N10750 X-1.6998 Y0.4063
N10755 X-1.695 Y0.3993
N10760 X-1.6898 Y0.3924
N10765 X-1.6842 Y0.3855
N10770 X-1.6779 Y0.3784
N10775 X-1.671 Y0.3712
N10780 X-1.6636 Y0.3641
N10785 X-1.6557 Y0.3571
N10790 X-1.6473 Y0.3503
N10795 X-1.6383 Y0.3435
N10800 X-1.6287 Y0.3369
N10805 X-1.6185 Y0.3305
N10810 X-1.6078 Y0.3243
N10815 X-1.5967 Y0.3186
N10820 X-1.5851 Y0.3131
N10825 X-1.5732 Y0.3081
N10830 X-1.561 Y0.3036
N10835 X-1.5484 Y0.2995
N10840 X-1.5356 Y0.2958
N10845 X-1.5225 Y0.2927
N10850 X-1.5095 Y0.2901
N10855 X-1.4964 Y0.2881
N10860 X-1.4834 Y0.2867
N10865 X-1.4705 Y0.2857
N10870 X-1.4579 Y0.2854
N10875 X-1.4454 Y0.2855
N10880 X-1.4332 Y0.2861
N10885 X-1.4213 Y0.2872
N10890 X-1.4108 Y0.2886
N10895 X-1.4004 Y0.2904
N10900 X-1.3898 Y0.2927
N10905 X-1.3809 Y0.2951
N10910 X-1.3721 Y0.2977
N10915 X-1.3628 Y0.301
N10920 X-1.3549 Y0.3041
N10925 X-1.3475 Y0.3074
N10930 X-1.3393 Y0.3115
N10935 X-1.3235 Y0.3218
N10940 X-1.3094 Y0.3344
N10945 X-1.2974 Y0.3489
N10950 X-1.2878 Y0.3652
N10955 X-1.2807 Y0.3827
N10960 X-1.2764 Y0.4011
N10965 X-1.275 Y0.4199
N10970 Y0.4665
N10975 G3 X-1.3232 Y0.5147 I-0.05 J-0.0017
N10980 G1 X-1.6733 Y0.5269
N10985 G3 X-1.725 Y0.4787 I-0.0017 J-0.05
N10990 G1 Y0.4338
N10995 X-1.7247 Y0.4271
N11000 X-1.7241 Y0.4211
N11005 X-1.7232 Y0.4152
N11010 X-1.722 Y0.4093
N11015 X-1.7204 Y0.4035
N11020 X-1.7186 Y0.3978
N11025 X-1.7165 Y0.3922
N11030 X-1.7141 Y0.3862
N11035 X-1.7112 Y0.3801
N11040 X-1.708 Y0.3739
N11045 X-1.7044 Y0.3674
N11050 X-1.7002 Y0.3606
N11055 X-1.6955 Y0.3538
N11060 X-1.6905 Y0.347
N11065 X-1.6848 Y0.34
N11070 X-1.6786 Y0.3328
N11075 X-1.6718 Y0.3257
N11080 X-1.6645 Y0.3187
N11085 X-1.6567 Y0.3117
N11090 X-1.6483 Y0.3048
N11095 X-1.6393 Y0.2979
N11100 X-1.6297 Y0.2913
N11105 X-1.6196 Y0.2848
N11110 X-1.609 Y0.2787
N11115 X-1.598 Y0.273
N11120 X-1.5866 Y0.2675
N11125 X-1.5747 Y0.2625
N11130 X-1.5625 Y0.2578
N11135 X-1.5499 Y0.2536
N11140 X-1.5371 Y0.25
N11145 X-1.5241 Y0.2468
N11150 X-1.5111 Y0.2442
N11155 X-1.498 Y0.2421
N11160 X-1.485 Y0.2406
N11165 X-1.4721 Y0.2396
N11170 X-1.4594 Y0.2391
N11175 X-1.4469 Y0.2392
N11180 X-1.4346 Y0.2398
N11185 X-1.4226 Y0.2408
N11190 X-1.4118 Y0.2422
N11195 X-1.4017 Y0.244
N11200 X-1.3909 Y0.2462
N11205 X-1.3817 Y0.2486
N11210 X-1.3731 Y0.2512
N11215 X-1.3637 Y0.2544
N11220 X-1.3556 Y0.2576
N11225 X-1.3483 Y0.2608
N11230 X-1.3401 Y0.2648
N11235 X-1.3327 Y0.2688
N11240 X-1.3185 Y0.2788
N11245 X-1.3058 Y0.2908
N11250 X-1.295 Y0.3045
N11255 X-1.2864 Y0.3196
N11260 X-1.2801 Y0.3359
N11265 X-1.2763 Y0.3529
N11270 X-1.275 Y0.3703
N11275 Y0.4199
N11280 G3 X-1.323 Y0.4681 I-0.05 J-0.0017
N11285 G1 X-1.6731 Y0.482
N11290 G3 X-1.725 Y0.4338 I-0.002 J-0.05
N11295 G1 Y0.3868
N11300 X-1.7247 Y0.3808
N11305 X-1.7241 Y0.3748
N11310 X-1.7232 Y0.3689
N11315 X-1.722 Y0.363
N11320 X-1.7204 Y0.3572
N11325 X-1.7186 Y0.3515
N11330 X-1.7165 Y0.3459
N11335 X-1.7141 Y0.34
N11340 X-1.7112 Y0.3338
N11345 X-1.708 Y0.3275
N11350 X-1.7044 Y0.3211
N11355 X-1.7002 Y0.3144
N11360 X-1.6955 Y0.3075
N11365 X-1.6904 Y0.3006
N11370 X-1.6848 Y0.2937
N11375 X-1.6786 Y0.2866
N11380 X-1.6718 Y0.2794
N11385 X-1.6645 Y0.2723
N11390 X-1.6567 Y0.2654
N11395 X-1.6483 Y0.2585
N11400 X-1.6393 Y0.2517
N11405 X-1.6297 Y0.245
N11410 X-1.6196 Y0.2386
N11415 X-1.609 Y0.2324
N11420 X-1.598 Y0.2266
N11425 X-1.5865 Y0.2212
N11430 X-1.5747 Y0.2162
N11435 X-1.5624 Y0.2116
N11440 X-1.5499 Y0.2074
N11445 X-1.5371 Y0.2037
N11450 X-1.5241 Y0.2005
N11455 X-1.511 Y0.1979
N11460 X-1.498 Y0.1958
N11465 X-1.4849 Y0.1943
N11470 X-1.472 Y0.1933
N11475 X-1.4593 Y0.1929
N11480 X-1.4468 Y0.193
N11485 X-1.4345 Y0.1935
N11490 X-1.4226 Y0.1946
N11495 X-1.4108 Y0.1961
N11500 X-1.4006 Y0.1979
N11505 X-1.3902 Y0.2001
N11510 X-1.3802 Y0.2026
N11515 X-1.3716 Y0.2052
N11520 X-1.3627 Y0.2083
N11525 X-1.354 Y0.2117
N11530 X-1.3466 Y0.215
N11535 X-1.3398 Y0.2183
N11540 X-1.324 Y0.2276
N11545 X-1.3098 Y0.2394
N11550 X-1.2977 Y0.2533
N11555 X-1.288 Y0.2689
N11560 X-1.2808 Y0.2859
N11565 X-1.2765 Y0.3038
N11570 X-1.275 Y0.3221
N11575 Y0.3703
N11580 G3 X-1.3226 Y0.4185 I-0.05 J-0.0017
N11585 G1 X-1.6727 Y0.435
N11590 G3 X-1.725 Y0.3868 I-0.0024 J-0.0499
N11595 G1 Y0.3402
N11600 X-1.7247 Y0.3342
N11605 X-1.7241 Y0.3282
N11610 X-1.7232 Y0.3223
N11615 X-1.7219 Y0.3164
N11620 X-1.7203 Y0.3106
N11625 X-1.7185 Y0.3049
N11630 X-1.7164 Y0.2993
N11635 X-1.714 Y0.2934
N11640 X-1.7111 Y0.2872
N11645 X-1.7079 Y0.2809
N11650 X-1.7042 Y0.2745
N11655 X-1.7 Y0.2678
N11660 X-1.6953 Y0.2609
N11665 X-1.6901 Y0.254
N11670 X-1.6845 Y0.247
N11675 X-1.6783 Y0.2399
N11680 X-1.6714 Y0.2328
N11685 X-1.6641 Y0.2257
N11690 X-1.6562 Y0.2187
N11695 X-1.6479 Y0.2118
N11700 X-1.6388 Y0.205
N11705 X-1.6292 Y0.1984
N11710 X-1.6191 Y0.192
N11715 X-1.6084 Y0.1859
N11720 X-1.5974 Y0.1801
N11725 X-1.5859 Y0.1747
N11730 X-1.574 Y0.1696
N11735 X-1.5618 Y0.1651
N11740 X-1.5492 Y0.1609
N11745 X-1.5364 Y0.1573
N11750 X-1.5234 Y0.1541
N11755 X-1.5102 Y0.1515
N11760 X-1.497 Y0.1494
N11765 X-1.4839 Y0.1479
N11770 X-1.4709 Y0.147
N11775 X-1.4581 Y0.1466
N11780 X-1.4455 Y0.1467
N11785 X-1.4331 Y0.1473
N11790 X-1.4212 Y0.1483
N11795 X-1.4104 Y0.1498
N11800 X-1.3987 Y0.1518
N11805 X-1.3885 Y0.154
N11810 X-1.3796 Y0.1563
N11815 X-1.3698 Y0.1593
N11820 X-1.361 Y0.1623
N11825 X-1.3534 Y0.1653
N11830 X-1.3453 Y0.1689
N11835 X-1.3374 Y0.1728
N11840 X-1.3369 Y0.173
N11845 X-1.3217 Y0.1829
N11850 X-1.3081 Y0.195
N11855 X-1.2966 Y0.209
N11860 X-1.2873 Y0.2246
N11865 X-1.2805 Y0.2414
N11870 X-1.2764 Y0.2591
N11875 X-1.275 Y0.2772
N11880 Y0.3221
N11885 G3 X-1.3224 Y0.3703 I-0.05 J-0.0017
N11890 G1 X-1.6725 Y0.3883
N11895 G3 X-1.725 Y0.3402 I-0.0026 J-0.0499
N11900 G1 Y0.2952
N11905 X-1.7246 Y0.2882
N11910 X-1.7241 Y0.2822
N11915 X-1.7232 Y0.2763
N11920 X-1.7219 Y0.2704
N11925 X-1.7204 Y0.2646
N11930 X-1.7186 Y0.2589
N11935 X-1.7165 Y0.2533
N11940 X-1.7141 Y0.2474
N11945 X-1.7112 Y0.2412
N11950 X-1.708 Y0.235
N11955 X-1.7044 Y0.2286
N11960 X-1.7002 Y0.2218
N11965 X-1.6955 Y0.215
N11970 X-1.6905 Y0.2081
N11975 X-1.6848 Y0.2011
N11980 X-1.6786 Y0.194
N11985 X-1.6718 Y0.1869
N11990 X-1.6645 Y0.1798
N11995 X-1.6567 Y0.1729
N12000 X-1.6483 Y0.166
N12005 X-1.6393 Y0.1592
N12010 X-1.6297 Y0.1525
N12015 X-1.6196 Y0.1461
N12020 X-1.609 Y0.1399
N12025 X-1.598 Y0.1342
N12030 X-1.5866 Y0.1287
N12035 X-1.5747 Y0.1236
N12040 X-1.5624 Y0.119
N12045 X-1.5498 Y0.1148
N12050 X-1.5369 Y0.1111
N12055 X-1.5238 Y0.1079
N12060 X-1.5107 Y0.1053
N12065 X-1.4974 Y0.1032
N12070 X-1.4842 Y0.1016
N12075 X-1.4712 Y0.1006
N12080 X-1.4583 Y0.1002
N12085 X-1.4456 Y0.1003
N12090 X-1.4332 Y0.1008
N12095 X-1.4211 Y0.1019
N12100 X-1.4101 Y0.1033
N12105 X-1.3999 Y0.1051
N12110 X-1.3891 Y0.1074
N12115 X-1.3799 Y0.1097
N12120 X-1.3712 Y0.1123
N12125 X-1.3619 Y0.1155
N12130 X-1.3539 Y0.1187
N12135 X-1.3466 Y0.1219
N12140 X-1.3384 Y0.1259
N12145 X-1.3228 Y0.136
N12150 X-1.3089 Y0.1483
N12155 X-1.2971 Y0.1626
N12160 X-1.2876 Y0.1785
N12165 X-1.2807 Y0.1957
N12170 X-1.2764 Y0.2137
N12175 X-1.275 Y0.2322
N12180 Y0.2772
N12185 G3 X-1.3224 Y0.3254 I-0.05 J-0.0017
N12190 G1 X-1.6725 Y0.3434
N12195 G3 X-1.725 Y0.2952 I-0.0026 J-0.0499
N12200 G1 Y0.2472
N12205 X-1.7247 Y0.2412
N12210 X-1.7241 Y0.2353
N12215 X-1.7231 Y0.2293
N12220 X-1.7218 Y0.2235
N12225 X-1.7202 Y0.2177
N12230 X-1.7184 Y0.212
N12235 X-1.7163 Y0.2064
N12240 X-1.7138 Y0.2005
N12245 X-1.7109 Y0.1943
N12250 X-1.7076 Y0.188
N12255 X-1.7039 Y0.1815
N12260 X-1.6997 Y0.1748
N12265 X-1.695 Y0.1679
N12270 X-1.6898 Y0.161
N12275 X-1.6841 Y0.154
N12280 X-1.6779 Y0.1469
N12285 X-1.671 Y0.1398
N12290 X-1.6636 Y0.1327
N12295 X-1.6557 Y0.1257
N12300 X-1.6473 Y0.1188
N12305 X-1.6382 Y0.1121
N12310 X-1.6285 Y0.1054
N12315 X-1.6183 Y0.099
N12320 X-1.6076 Y0.0929
N12325 X-1.5965 Y0.0871
N12330 X-1.5849 Y0.0817
N12335 X-1.5729 Y0.0766
N12340 X-1.5606 Y0.072
N12345 X-1.5479 Y0.0679
N12350 X-1.535 Y0.0643
N12355 X-1.5219 Y0.0611
N12360 X-1.5087 Y0.0585
N12365 X-1.4955 Y0.0565
N12370 X-1.4823 Y0.0551
N12375 X-1.4694 Y0.0541
N12380 X-1.4566 Y0.0538
N12385 X-1.444 Y0.0539
N12390 X-1.4318 Y0.0545
N12395 X-1.4198 Y0.0556
N12400 X-1.4093 Y0.057
N12405 X-1.3988 Y0.0589
N12410 X-1.3884 Y0.0612
N12415 X-1.3795 Y0.0635
N12420 X-1.3706 Y0.0662
N12425 X-1.3615 Y0.0694
N12430 X-1.3536 Y0.0725
N12435 X-1.3462 Y0.0758
N12440 X-1.3433 Y0.0773
N12445 X-1.3286 Y0.0859
N12450 X-1.3152 Y0.0965
N12455 X-1.3034 Y0.1088
N12460 X-1.2935 Y0.1226
N12465 X-1.2855 Y0.1376
N12470 X-1.2797 Y0.1536
N12475 X-1.2762 Y0.1703
N12480 X-1.275 Y0.1873
N12485 Y0.2322
N12490 G3 X-1.3228 Y0.2804 I-0.05 J-0.0017
N12495 G1 X-1.6729 Y0.2954
N12500 G3 X-1.725 Y0.2472 I-0.0021 J-0.05
N12505 G1 Y0.2023
N12510 X-1.7247 Y0.1957
N12515 X-1.7241 Y0.1897
N12520 X-1.7232 Y0.1838
N12525 X-1.722 Y0.1779
N12530 X-1.7204 Y0.1721
N12535 X-1.7186 Y0.1664
N12540 X-1.7165 Y0.1608
N12545 X-1.7141 Y0.1548
N12550 X-1.7112 Y0.1487
N12555 X-1.708 Y0.1425
N12560 X-1.7044 Y0.136
N12565 X-1.7002 Y0.1292
N12570 X-1.6955 Y0.1224
N12575 X-1.6905 Y0.1156
N12580 X-1.6848 Y0.1086
N12585 X-1.6785 Y0.1014
N12590 X-1.6718 Y0.0943
N12595 X-1.6645 Y0.0872
N12600 X-1.6567 Y0.0803
N12605 X-1.6482 Y0.0733
N12610 X-1.6392 Y0.0664
N12615 X-1.6295 Y0.0598
N12620 X-1.6194 Y0.0533
N12625 X-1.6088 Y0.0472
N12630 X-1.5978 Y0.0414
N12635 X-1.5863 Y0.0359
N12640 X-1.5743 Y0.0309
N12645 X-1.562 Y0.0262
N12650 X-1.5493 Y0.022
N12655 X-1.5364 Y0.0183
N12660 X-1.5234 Y0.0151
N12665 X-1.5103 Y0.0125
N12670 X-1.4971 Y0.0104
N12675 X-1.484 Y0.0089
N12680 X-1.4711 Y0.0079
N12685 X-1.4584 Y0.0074
N12690 X-1.4458 Y0.0075
N12695 X-1.4335 Y0.0081
N12700 X-1.422 Y0.0091
N12705 X-1.4114 Y0.0105
N12710 X-1.4002 Y0.0124
N12715 X-1.3907 Y0.0144
N12720 X-1.3812 Y0.0168
N12725 X-1.3718 Y0.0197
N12730 X-1.3637 Y0.0224
N12735 X-1.3553 Y0.0257
N12740 X-1.3471 Y0.0293
N12745 X-1.34 Y0.0328
N12750 X-1.324 Y0.0431
N12755 X-1.3098 Y0.0557
N12760 X-1.2977 Y0.0704
N12765 X-1.2879 Y0.0867
N12770 X-1.2808 Y0.1044
N12775 X-1.2765 Y0.1229
N12780 X-1.275 Y0.1419
N12785 Y0.1873
N12790 G3 X-1.3228 Y0.2355 I-0.05 J-0.0017
N12795 G1 X-1.6729 Y0.2505
N12800 G3 X-1.725 Y0.2023 I-0.0021 J-0.05
N12805 G1 Y0.1548
N12810 X-1.7247 Y0.1488
N12815 X-1.7241 Y0.1429
N12820 X-1.7232 Y0.1369
N12825 X-1.7219 Y0.1311
N12830 X-1.7203 Y0.1253
N12835 X-1.7184 Y0.1196
N12840 X-1.7164 Y0.114
N12845 X-1.7139 Y0.1081
N12850 X-1.711 Y0.1019
N12855 X-1.7077 Y0.0955
N12860 X-1.704 Y0.0891
N12865 X-1.6998 Y0.0824
N12870 X-1.6951 Y0.0754
N12875 X-1.6899 Y0.0685
N12880 X-1.6842 Y0.0616
N12885 X-1.678 Y0.0545
N12890 X-1.6711 Y0.0473
N12895 X-1.6637 Y0.0402
N12900 X-1.6558 Y0.0332
N12905 X-1.6474 Y0.0263
N12910 X-1.6383 Y0.0195
N12915 X-1.6286 Y0.0128
N12920 X-1.6184 Y0.0064
N12925 X-1.6077 Y0.0003
N12930 X-1.5966 Y-0.0055
N12935 X-1.585 Y-0.011
N12940 X-1.5731 Y-0.016
N12945 X-1.5608 Y-0.0206
N12950 X-1.5482 Y-0.0247
N12955 X-1.5353 Y-0.0284
N12960 X-1.5223 Y-0.0315
N12965 X-1.5092 Y-0.0341
N12970 X-1.4961 Y-0.0361
N12975 X-1.4831 Y-0.0376
N12980 X-1.4702 Y-0.0385
N12985 X-1.4575 Y-0.0389
N12990 X-1.4451 Y-0.0388
N12995 X-1.4328 Y-0.0382
N13000 X-1.4209 Y-0.0371
N13005 X-1.4106 Y-0.0357
N13010 X-1.4001 Y-0.0339
N13015 X-1.3896 Y-0.0316
N13020 X-1.3808 Y-0.0293
N13025 X-1.372 Y-0.0266
N13030 X-1.3627 Y-0.0234
N13035 X-1.3548 Y-0.0202
N13040 X-1.3474 Y-0.017
N13045 X-1.3393 Y-0.0129
N13050 X-1.3235 Y-0.0026
N13055 X-1.3094 Y0.0099
N13060 X-1.2974 Y0.0245
N13065 X-1.2878 Y0.0407
N13070 X-1.2807 Y0.0582
N13075 X-1.2764 Y0.0766
N13080 X-1.275 Y0.0954
N13085 Y0.1419
N13090 G3 X-1.3231 Y0.1901 I-0.05 J-0.0017
N13095 G1 X-1.6732 Y0.2031
N13100 G3 X-1.725 Y0.1548 I-0.0019 J-0.05
N13105 G1 Y0.1078
N13110 X-1.7247 Y0.1018
N13115 X-1.7241 Y0.0959
N13120 X-1.7231 Y0.09
N13125 X-1.7217 Y0.0841
N13130 X-1.7201 Y0.0783
N13135 X-1.7183 Y0.0726
N13140 X-1.7161 Y0.067
N13145 X-1.7136 Y0.0611
N13150 X-1.7107 Y0.0549
N13155 X-1.7074 Y0.0485
N13160 X-1.7036 Y0.0421
N13165 X-1.6993 Y0.0353
N13170 X-1.6945 Y0.0284
N13175 X-1.6893 Y0.0214
N13180 X-1.6836 Y0.0144
N13185 X-1.6773 Y0.0073
N13190 X-1.6703 Y0.0001
N13195 X-1.6628 Y-0.007
N13200 X-1.6549 Y-0.014
N13205 X-1.6464 Y-0.0208
N13210 X-1.6373 Y-0.0276
N13215 X-1.6275 Y-0.0342
N13220 X-1.6173 Y-0.0406
N13225 X-1.6065 Y-0.0467
N13230 X-1.5954 Y-0.0525
N13235 X-1.5838 Y-0.0579
N13240 X-1.5718 Y-0.0628
N13245 X-1.5595 Y-0.0674
N13250 X-1.5469 Y-0.0714
N13255 X-1.534 Y-0.075
N13260 X-1.521 Y-0.0781
N13265 X-1.5079 Y-0.0806
N13270 X-1.4949 Y-0.0826
N13275 X-1.4818 Y-0.084
N13280 X-1.469 Y-0.0848
N13285 X-1.4564 Y-0.0852
N13290 X-1.444 Y-0.085
N13295 X-1.4319 Y-0.0843
N13300 X-1.42 Y-0.0832
N13305 X-1.4096 Y-0.0818
N13310 X-1.3991 Y-0.0799
N13315 X-1.3887 Y-0.0776
N13320 X-1.3798 Y-0.0752
N13325 X-1.371 Y-0.0725
N13330 X-1.3618 Y-0.0692
N13335 X-1.3539 Y-0.0661
N13340 X-1.3465 Y-0.0627
N13345 X-1.3384 Y-0.0587
N13350 X-1.3228 Y-0.0484
N13355 X-1.3089 Y-0.036
N13360 X-1.2971 Y-0.0215
N13365 X-1.2876 Y-0.0054
N13370 X-1.2806 Y0.0119
N13375 X-1.2764 Y0.0301
N13380 X-1.275 Y0.0487
N13385 Y0.0954
N13390 G3 X-1.3232 Y0.1436 I-0.05 J-0.0017
N13395 G1 X-1.6733 Y0.1561
N13400 G3 X-1.725 Y0.1078 I-0.0018 J-0.05
N13405 G1 Y0.0629
N13410 X-1.7247 Y0.0568
N13415 X-1.7241 Y0.0508
N13420 X-1.7232 Y0.0448
N13425 X-1.722 Y0.039
N13430 X-1.7204 Y0.0332
N13435 X-1.7186 Y0.0275
N13440 X-1.7166 Y0.0218
N13445 X-1.7141 Y0.0159
N13450 X-1.7113 Y0.0098
N13455 X-1.7081 Y0.0036
N13460 X-1.7044 Y-0.003
N13465 X-1.7002 Y-0.0097
N13470 X-1.6956 Y-0.0165
N13475 X-1.6905 Y-0.0234
N13480 X-1.6848 Y-0.0304
N13485 X-1.6785 Y-0.0376
N13490 X-1.6718 Y-0.0447
N13495 X-1.6645 Y-0.0517
N13500 X-1.6567 Y-0.0587
N13505 X-1.6482 Y-0.0657
N13510 X-1.6392 Y-0.0726
N13515 X-1.6296 Y-0.0792
N13520 X-1.6195 Y-0.0856
N13525 X-1.609 Y-0.0917
N13530 X-1.598 Y-0.0975
N13535 X-1.5865 Y-0.103
N13540 X-1.5746 Y-0.108
N13545 X-1.5623 Y-0.1127
N13550 X-1.5497 Y-0.1169
N13555 X-1.5369 Y-0.1206
N13560 X-1.5239 Y-0.1237
N13565 X-1.5109 Y-0.1264
N13570 X-1.4979 Y-0.1284
N13575 X-1.4848 Y-0.13
N13580 X-1.472 Y-0.1309
N13585 X-1.4593 Y-0.1314
N13590 X-1.4467 Y-0.1313
N13595 X-1.4344 Y-0.1307
N13600 X-1.4224 Y-0.1297
N13605 X-1.4115 Y-0.1283
N13610 X-1.4014 Y-0.1266
N13615 X-1.3906 Y-0.1243
N13620 X-1.3813 Y-0.1219
N13625 X-1.3728 Y-0.1193
N13630 X-1.3634 Y-0.1161
N13635 X-1.3553 Y-0.1129
N13640 X-1.348 Y-0.1097
N13645 X-1.3399 Y-0.1058
N13650 X-1.3239 Y-0.0955
N13655 X-1.3097 Y-0.0829
N13660 X-1.2976 Y-0.0683
N13665 X-1.2879 Y-0.052
N13670 X-1.2808 Y-0.0344
N13675 X-1.2765 Y-0.0159
N13680 X-1.275 Y0.003
N13685 Y0.0487
N13690 G3 X-1.3229 Y0.0969 I-0.05 J-0.0017
N13695 G1 X-1.673 Y0.1111
N13700 G3 X-1.725 Y0.0629 I-0.002 J-0.05
N13705 G1 Y0.0179
N13710 X-1.7246 Y0.0104
N13715 X-1.7241 Y0.0044
N13720 X-1.7232 Y-0.0015
N13725 X-1.7219 Y-0.0074
N13730 X-1.7204 Y-0.0132
N13735 X-1.7185 Y-0.0189
N13740 X-1.7165 Y-0.0245
N13745 X-1.714 Y-0.0304
N13750 X-1.7112 Y-0.0366
N13755 X-1.708 Y-0.0429
N13760 X-1.7043 Y-0.0493
N13765 X-1.7002 Y-0.056
N13770 X-1.6955 Y-0.0629
N13775 X-1.6904 Y-0.0698
N13780 X-1.6848 Y-0.0767
N13785 X-1.6786 Y-0.0838
N13790 X-1.6718 Y-0.091
N13795 X-1.6645 Y-0.0981
N13800 X-1.6567 Y-0.1051
N13805 X-1.6483 Y-0.112
N13810 X-1.6393 Y-0.1188
N13815 X-1.6297 Y-0.1254
N13820 X-1.6196 Y-0.1319
N13825 X-1.609 Y-0.138
N13830 X-1.598 Y-0.1438
N13835 X-1.5865 Y-0.1492
N13840 X-1.5747 Y-0.1543
N13845 X-1.5624 Y-0.1589
N13850 X-1.5499 Y-0.1631
N13855 X-1.5371 Y-0.1668
N13860 X-1.524 Y-0.17
N13865 X-1.511 Y-0.1726
N13870 X-1.4979 Y-0.1747
N13875 X-1.4848 Y-0.1762
N13880 X-1.4719 Y-0.1772
N13885 X-1.4592 Y-0.1777
N13890 X-1.4466 Y-0.1776
N13895 X-1.4344 Y-0.177
N13900 X-1.4224 Y-0.176
N13905 X-1.4118 Y-0.1746
N13910 X-1.4015 Y-0.1728
N13915 X-1.3908 Y-0.1706
N13920 X-1.3817 Y-0.1682
N13925 X-1.373 Y-0.1656
N13930 X-1.3637 Y-0.1624
N13935 X-1.3556 Y-0.1593
N13940 X-1.3482 Y-0.156
N13945 X-1.3401 Y-0.152
N13950 X-1.3241 Y-0.1417
N13955 X-1.3098 Y-0.1291
N13960 X-1.2977 Y-0.1144
N13965 X-1.2879 Y-0.0981
N13970 X-1.2808 Y-0.0804
N13975 X-1.2765 Y-0.0619
N13980 X-1.275 Y-0.0429
N13985 Y0.003
N13990 G3 X-1.3228 Y0.0512 I-0.05 J-0.0017
N13995 G1 X-1.6729 Y0.0662
N14000 G3 X-1.725 Y0.0179 I-0.0021 J-0.05
N14005 G1 Y-0.0307
N14010 X-1.7247 Y-0.0367
N14015 X-1.7241 Y-0.0427
N14020 X-1.7231 Y-0.0486
N14025 X-1.7218 Y-0.0545
N14030 X-1.7202 Y-0.0602
N14035 X-1.7184 Y-0.0659
N14040 X-1.7163 Y-0.0716
N14045 X-1.7138 Y-0.0775
N14050 X-1.7109 Y-0.0837
N14055 X-1.7076 Y-0.09
N14060 X-1.7039 Y-0.0965
N14065 X-1.6997 Y-0.1032
N14070 X-1.6949 Y-0.1101
N14075 X-1.6897 Y-0.117
N14080 X-1.684 Y-0.124
N14085 X-1.6778 Y-0.1311
N14090 X-1.6709 Y-0.1382
N14095 X-1.6635 Y-0.1453
N14100 X-1.6556 Y-0.1523
N14105 X-1.6471 Y-0.1592
N14110 X-1.6381 Y-0.1659
N14115 X-1.6284 Y-0.1726
N14120 X-1.6182 Y-0.179
N14125 X-1.6075 Y-0.1851
N14130 X-1.5964 Y-0.1909
N14135 X-1.5849 Y-0.1963
N14140 X-1.5729 Y-0.2013
N14145 X-1.5607 Y-0.2058
N14150 X-1.5481 Y-0.2099
N14155 X-1.5352 Y-0.2136
N14160 X-1.5222 Y-0.2167
N14165 X-1.5091 Y-0.2192
N14170 X-1.4961 Y-0.2212
N14175 X-1.483 Y-0.2227
N14180 X-1.4702 Y-0.2236
N14185 X-1.4575 Y-0.2239
N14190 X-1.4451 Y-0.2238
N14195 X-1.4329 Y-0.2232
N14200 X-1.421 Y-0.2221
N14205 X-1.4106 Y-0.2207
N14210 X-1.4001 Y-0.2188
N14215 X-1.3896 Y-0.2165
N14220 X-1.3807 Y-0.2142
N14225 X-1.3718 Y-0.2115
N14230 X-1.3626 Y-0.2082
N14235 X-1.3547 Y-0.2051
N14240 X-1.3473 Y-0.2018
N14245 X-1.3391 Y-0.1977
N14250 X-1.3233 Y-0.1875
N14255 X-1.3093 Y-0.1749
N14260 X-1.2973 Y-0.1603
N14265 X-1.2877 Y-0.1441
N14270 X-1.2807 Y-0.1266
N14275 X-1.2764 Y-0.1083
N14280 X-1.275 Y-0.0895
N14285 Y-0.0429
N14290 G3 X-1.3232 Y0.0053 I-0.05 J-0.0017
N14295 G1 X-1.6733 Y0.0175
N14300 G3 X-1.725 Y-0.0307 I-0.0017 J-0.05
N14305 G1 Y-0.0757
N14310 X-1.7247 Y-0.0822
N14315 X-1.7241 Y-0.0882
N14320 X-1.7232 Y-0.0941
N14325 X-1.722 Y-0.1
N14330 X-1.7204 Y-0.1058
N14335 X-1.7186 Y-0.1115
N14340 X-1.7165 Y-0.1171
N14345 X-1.7141 Y-0.1231
N14350 X-1.7112 Y-0.1292
N14355 X-1.7081 Y-0.1354
N14360 X-1.7044 Y-0.1419
N14365 X-1.7002 Y-0.1486
N14370 X-1.6956 Y-0.1555
N14375 X-1.6905 Y-0.1623
N14380 X-1.6848 Y-0.1693
N14385 X-1.6786 Y-0.1765
N14390 X-1.6718 Y-0.1836
N14395 X-1.6645 Y-0.1906
N14400 X-1.6567 Y-0.1976
N14405 X-1.6483 Y-0.2045
N14410 X-1.6393 Y-0.2114
N14415 X-1.6297 Y-0.218
N14420 X-1.6196 Y-0.2244
N14425 X-1.609 Y-0.2306
N14430 X-1.598 Y-0.2363
N14435 X-1.5866 Y-0.2418
N14440 X-1.5747 Y-0.2468
N14445 X-1.5624 Y-0.2515
N14450 X-1.5499 Y-0.2557
N14455 X-1.5371 Y-0.2593
N14460 X-1.524 Y-0.2625
N14465 X-1.511 Y-0.2651
N14470 X-1.498 Y-0.2672
N14475 X-1.4849 Y-0.2687
N14480 X-1.4721 Y-0.2697
N14485 X-1.4594 Y-0.2702
N14490 X-1.4468 Y-0.2701
N14495 X-1.4346 Y-0.2695
N14500 X-1.4226 Y-0.2685
N14505 X-1.4118 Y-0.2671
N14510 X-1.4016 Y-0.2653
N14515 X-1.3908 Y-0.263
N14520 X-1.3816 Y-0.2607
N14525 X-1.373 Y-0.2581
N14530 X-1.3637 Y-0.2549
N14535 X-1.3555 Y-0.2517
N14540 X-1.3482 Y-0.2485
N14545 X-1.3401 Y-0.2445
N14550 X-1.3327 Y-0.2405
N14555 X-1.3184 Y-0.2305
N14560 X-1.3058 Y-0.2185
N14565 X-1.295 Y-0.2048
N14570 X-1.2864 Y-0.1897
N14575 X-1.2801 Y-0.1735
N14580 X-1.2763 Y-0.1565
N14585 X-1.275 Y-0.1391
N14590 Y-0.0895
N14595 G3 X-1.323 Y-0.0413 I-0.05 J-0.0017
N14600 G1 X-1.6731 Y-0.0274
N14605 G3 X-1.725 Y-0.0757 I-0.002 J-0.05
N14610 G1 Y-0.1227
N14615 X-1.7247 Y-0.1286
N14620 X-1.7241 Y-0.1346
N14625 X-1.7232 Y-0.1405
N14630 X-1.7219 Y-0.1464
N14635 X-1.7204 Y-0.1522
N14640 X-1.7186 Y-0.1579
N14645 X-1.7165 Y-0.1636
N14650 X-1.714 Y-0.1694
N14655 X-1.7112 Y-0.1756
N14660 X-1.708 Y-0.1819
N14665 X-1.7043 Y-0.1883
N14670 X-1.7001 Y-0.1951
N14675 X-1.6954 Y-0.202
N14680 X-1.6903 Y-0.2088
N14685 X-1.6847 Y-0.2158
N14690 X-1.6785 Y-0.2229
N14695 X-1.6716 Y-0.2301
N14700 X-1.6643 Y-0.2371
N14705 X-1.6565 Y-0.2441
N14710 X-1.6481 Y-0.251
N14715 X-1.6391 Y-0.2578
N14720 X-1.6295 Y-0.2644
N14725 X-1.6193 Y-0.2709
N14730 X-1.6087 Y-0.277
N14735 X-1.5977 Y-0.2828
N14740 X-1.5862 Y-0.2882
N14745 X-1.5744 Y-0.2932
N14750 X-1.5621 Y-0.2979
N14755 X-1.5496 Y-0.302
N14760 X-1.5368 Y-0.3057
N14765 X-1.5238 Y-0.3088
N14770 X-1.5107 Y-0.3115
N14775 X-1.4976 Y-0.3135
N14780 X-1.4846 Y-0.315
N14785 X-1.4717 Y-0.316
N14790 X-1.459 Y-0.3164
N14795 X-1.4464 Y-0.3163
N14800 X-1.4342 Y-0.3158
N14805 X-1.4223 Y-0.3147
N14810 X-1.4105 Y-0.3132
N14815 X-1.4003 Y-0.3114
N14820 X-1.3899 Y-0.3092
N14825 X-1.3799 Y-0.3066
N14830 X-1.3713 Y-0.304
N14835 X-1.3624 Y-0.3009
N14840 X-1.3538 Y-0.2976
N14845 X-1.3464 Y-0.2943
N14850 X-1.3396 Y-0.291
N14855 X-1.3238 Y-0.2816
N14860 X-1.3097 Y-0.2698
N14865 X-1.2977 Y-0.256
N14870 X-1.2879 Y-0.2404
N14875 X-1.2808 Y-0.2235
N14880 X-1.2765 Y-0.2056
N14885 X-1.275 Y-0.1873
N14890 Y-0.1391
N14895 G3 X-1.3226 Y-0.0909 I-0.05 J-0.0017
N14900 G1 X-1.6727 Y-0.0745
N14905 G3 X-1.725 Y-0.1227 I-0.0023 J-0.0499
N14910 G1 Y-0.1693
N14915 X-1.7247 Y-0.1753
N14920 X-1.7241 Y-0.1812
N14925 X-1.7232 Y-0.1872
N14930 X-1.7219 Y-0.193
N14935 X-1.7203 Y-0.1988
N14940 X-1.7185 Y-0.2045
N14945 X-1.7164 Y-0.2102
N14950 X-1.7139 Y-0.216
N14955 X-1.711 Y-0.2222
N14960 X-1.7078 Y-0.2285
N14965 X-1.7041 Y-0.235
N14970 X-1.6999 Y-0.2417
N14975 X-1.6952 Y-0.2486
N14980 X-1.69 Y-0.2555
N14985 X-1.6844 Y-0.2624
N14990 X-1.6781 Y-0.2695
N14995 X-1.6713 Y-0.2767
N15000 X-1.6639 Y-0.2838
N15005 X-1.6561 Y-0.2908
N15010 X-1.6477 Y-0.2976
N15015 X-1.6386 Y-0.3044
N15020 X-1.629 Y-0.311
N15025 X-1.6188 Y-0.3175
N15030 X-1.6082 Y-0.3236
N15035 X-1.5971 Y-0.3293
N15040 X-1.5856 Y-0.3348
N15045 X-1.5737 Y-0.3398
N15050 X-1.5615 Y-0.3444
N15055 X-1.5489 Y-0.3485
N15060 X-1.5361 Y-0.3521
N15065 X-1.5231 Y-0.3553
N15070 X-1.5099 Y-0.3579
N15075 X-1.4967 Y-0.3599
N15080 X-1.4836 Y-0.3614
N15085 X-1.4705 Y-0.3623
N15090 X-1.4577 Y-0.3628
N15095 X-1.4451 Y-0.3626
N15100 X-1.4328 Y-0.362
N15105 X-1.4209 Y-0.3609
N15110 X-1.4101 Y-0.3595
N15115 X-1.3984 Y-0.3575
N15120 X-1.3882 Y-0.3553
N15125 X-1.3793 Y-0.353
N15130 X-1.3695 Y-0.35
N15135 X-1.3608 Y-0.3469
N15140 X-1.3532 Y-0.3439
N15145 X-1.345 Y-0.3403
N15150 X-1.3367 Y-0.3362
N15155 X-1.3215 Y-0.3263
N15160 X-1.308 Y-0.3143
N15165 X-1.2965 Y-0.3003
N15170 X-1.2873 Y-0.2847
N15175 X-1.2805 Y-0.2679
N15180 X-1.2764 Y-0.2503
N15185 X-1.275 Y-0.2322
N15190 Y-0.1873
N15195 G3 X-1.3224 Y-0.1391 I-0.05 J-0.0017
N15200 G1 X-1.6725 Y-0.1211
N15205 G3 X-1.725 Y-0.1693 I-0.0026 J-0.0499
N15210 G1 Y-0.2142
N15215 X-1.7247 Y-0.2211
N15220 X-1.7241 Y-0.2271
N15225 X-1.7232 Y-0.233
N15230 X-1.7219 Y-0.2389
N15235 X-1.7204 Y-0.2447
N15240 X-1.7186 Y-0.2504
N15245 X-1.7165 Y-0.256
N15250 X-1.7141 Y-0.2619
N15255 X-1.7112 Y-0.2681
N15260 X-1.708 Y-0.2743
N15265 X-1.7044 Y-0.2807
N15270 X-1.7002 Y-0.2875
N15275 X-1.6955 Y-0.2943
N15280 X-1.6905 Y-0.3012
N15285 X-1.6848 Y-0.3082
N15290 X-1.6786 Y-0.3153
N15295 X-1.6718 Y-0.3224
N15300 X-1.6645 Y-0.3295
N15305 X-1.6567 Y-0.3364
N15310 X-1.6483 Y-0.3433
N15315 X-1.6393 Y-0.3502
N15320 X-1.6297 Y-0.3568
N15325 X-1.6196 Y-0.3632
N15330 X-1.609 Y-0.3694
N15335 X-1.598 Y-0.3751
N15340 X-1.5866 Y-0.3806
N15345 X-1.5746 Y-0.3857
N15350 X-1.5624 Y-0.3903
N15355 X-1.5497 Y-0.3945
N15360 X-1.5369 Y-0.3982
N15365 X-1.5238 Y-0.4014
N15370 X-1.5107 Y-0.404
N15375 X-1.4974 Y-0.4061
N15380 X-1.4842 Y-0.4077
N15385 X-1.4712 Y-0.4087
N15390 X-1.4583 Y-0.4091
N15395 X-1.4456 Y-0.409
N15400 X-1.4332 Y-0.4085
N15405 X-1.4211 Y-0.4074
N15410 X-1.4101 Y-0.406
N15415 X-1.3998 Y-0.4042
N15420 X-1.389 Y-0.4019
N15425 X-1.3798 Y-0.3996
N15430 X-1.3712 Y-0.397
N15435 X-1.3619 Y-0.3938
N15440 X-1.3538 Y-0.3906
N15445 X-1.3465 Y-0.3874
N15450 X-1.3383 Y-0.3834
N15455 X-1.3227 Y-0.3733
N15460 X-1.3089 Y-0.3611
N15465 X-1.2971 Y-0.3468
N15470 X-1.2876 Y-0.3309
N15475 X-1.2807 Y-0.3137
N15480 X-1.2764 Y-0.2957
N15485 X-1.275 Y-0.2772
N15490 Y-0.2322
N15495 G3 X-1.3224 Y-0.1841 I-0.05 J-0.0017
N15500 G1 X-1.6725 Y-0.166
N15505 G3 X-1.725 Y-0.2142 I-0.0026 J-0.0499
N15510 G1 Y-0.2622
N15515 X-1.7247 Y-0.2682
N15520 X-1.7241 Y-0.2742
N15525 X-1.7231 Y-0.2801
N15530 X-1.7218 Y-0.2859
N15535 X-1.7202 Y-0.2917
N15540 X-1.7184 Y-0.2974
N15545 X-1.7163 Y-0.3031
N15550 X-1.7138 Y-0.3089
N15555 X-1.7109 Y-0.3151
N15560 X-1.7076 Y-0.3215
N15565 X-1.7039 Y-0.3279
N15570 X-1.6996 Y-0.3346
N15575 X-1.6949 Y-0.3416
N15580 X-1.6897 Y-0.3485
N15585 X-1.684 Y-0.3554
N15590 X-1.6777 Y-0.3625
N15595 X-1.6709 Y-0.3697
N15600 X-1.6634 Y-0.3768
N15605 X-1.6555 Y-0.3838
N15610 X-1.6471 Y-0.3906
N15615 X-1.638 Y-0.3974
N15620 X-1.6283 Y-0.404
N15625 X-1.6181 Y-0.4104
N15630 X-1.6074 Y-0.4166
N15635 X-1.5962 Y-0.4223
N15640 X-1.5846 Y-0.4278
N15645 X-1.5726 Y-0.4328
N15650 X-1.5603 Y-0.4374
N15655 X-1.5476 Y-0.4415
N15660 X-1.5347 Y-0.4451
N15665 X-1.5216 Y-0.4482
N15670 X-1.5084 Y-0.4508
N15675 X-1.4952 Y-0.4528
N15680 X-1.482 Y-0.4543
N15685 X-1.4691 Y-0.4552
N15690 X-1.4563 Y-0.4556
N15695 X-1.4437 Y-0.4554
N15700 X-1.4315 Y-0.4548
N15705 X-1.4196 Y-0.4537
N15710 X-1.4091 Y-0.4522
N15715 X-1.3985 Y-0.4504
N15720 X-1.3881 Y-0.4481
N15725 X-1.3792 Y-0.4458
N15730 X-1.3704 Y-0.443
N15735 X-1.3612 Y-0.4398
N15740 X-1.3534 Y-0.4367
N15745 X-1.346 Y-0.4334
N15750 X-1.3431 Y-0.432
N15755 X-1.3284 Y-0.4234
N15760 X-1.3151 Y-0.4128
N15765 X-1.3033 Y-0.4005
N15770 X-1.2934 Y-0.3867
N15775 X-1.2855 Y-0.3717
N15780 X-1.2797 Y-0.3557
N15785 X-1.2762 Y-0.3391
N15790 X-1.275 Y-0.3221
N15795 Y-0.2772
N15800 G3 X-1.3228 Y-0.229 I-0.05 J-0.0017
N15805 G1 X-1.6729 Y-0.214
N15810 G3 X-1.725 Y-0.2622 I-0.0021 J-0.05
N15815 G1 Y-0.3072
N15820 X-1.7247 Y-0.3136
N15825 X-1.7241 Y-0.3196
N15830 X-1.7232 Y-0.3255
N15835 X-1.722 Y-0.3314
N15840 X-1.7204 Y-0.3372
N15845 X-1.7186 Y-0.3429
N15850 X-1.7165 Y-0.3485
N15855 X-1.7141 Y-0.3545
N15860 X-1.7112 Y-0.3606
N15865 X-1.7081 Y-0.3668
N15870 X-1.7044 Y-0.3733
N15875 X-1.7002 Y-0.3801
N15880 X-1.6956 Y-0.3869
N15885 X-1.6905 Y-0.3937
N15890 X-1.6848 Y-0.4007
N15895 X-1.6785 Y-0.4079
N15900 X-1.6718 Y-0.415
N15905 X-1.6645 Y-0.4221
N15910 X-1.6567 Y-0.4291
N15915 X-1.6482 Y-0.436
N15920 X-1.6391 Y-0.4429
N15925 X-1.6295 Y-0.4496
N15930 X-1.6194 Y-0.456
N15935 X-1.6088 Y-0.4621
N15940 X-1.5978 Y-0.4679
N15945 X-1.5862 Y-0.4734
N15950 X-1.5743 Y-0.4785
N15955 X-1.5619 Y-0.4831
N15960 X-1.5493 Y-0.4873
N15965 X-1.5364 Y-0.491
N15970 X-1.5233 Y-0.4942
N15975 X-1.5102 Y-0.4969
N15980 X-1.4971 Y-0.4989
N15985 X-1.484 Y-0.5005
N15990 X-1.4711 Y-0.5015
N15995 X-1.4583 Y-0.5019
N16000 X-1.4457 Y-0.5018
N16005 X-1.4335 Y-0.5012
N16010 X-1.4219 Y-0.5002
N16015 X-1.4113 Y-0.4989
N16020 X-1.4001 Y-0.497
N16025 X-1.3906 Y-0.4949
N16030 X-1.3812 Y-0.4925
N16035 X-1.3717 Y-0.4897
N16040 X-1.3636 Y-0.4869
N16045 X-1.3552 Y-0.4836
N16050 X-1.347 Y-0.48
N16055 X-1.34 Y-0.4765
N16060 X-1.324 Y-0.4662
N16065 X-1.3098 Y-0.4536
N16070 X-1.2977 Y-0.439
N16075 X-1.2879 Y-0.4226
N16080 X-1.2808 Y-0.405
N16085 X-1.2765 Y-0.3865
N16090 X-1.275 Y-0.3675
N16095 Y-0.3221
N16100 G3 X-1.3228 Y-0.2739 I-0.05 J-0.0017
N16105 G1 X-1.6729 Y-0.2589
N16110 G3 X-1.725 Y-0.3072 I-0.0021 J-0.05
N16115 G1 Y-0.3546
N16120 X-1.7247 Y-0.3606
N16125 X-1.7241 Y-0.3666
N16130 X-1.7231 Y-0.3725
N16135 X-1.7218 Y-0.3783
N16140 X-1.7203 Y-0.3841
N16145 X-1.7184 Y-0.3898
N16150 X-1.7163 Y-0.3955
N16155 X-1.7138 Y-0.4013
N16160 X-1.7109 Y-0.4076
N16165 X-1.7076 Y-0.4139
N16170 X-1.704 Y-0.4203
N16175 X-1.6997 Y-0.4271
N16180 X-1.695 Y-0.434
N16185 X-1.6898 Y-0.4409
N16190 X-1.6841 Y-0.4479
N16195 X-1.6779 Y-0.455
N16200 X-1.671 Y-0.4622
N16205 X-1.6635 Y-0.4693
N16210 X-1.6556 Y-0.4763
N16215 X-1.6472 Y-0.4832
N16220 X-1.6381 Y-0.49
N16225 X-1.6284 Y-0.4966
N16230 X-1.6182 Y-0.503
N16235 X-1.6075 Y-0.5092
N16240 X-1.5963 Y-0.515
N16245 X-1.5848 Y-0.5204
N16250 X-1.5728 Y-0.5254
N16255 X-1.5605 Y-0.53
N16260 X-1.5479 Y-0.5341
N16265 X-1.535 Y-0.5378
N16270 X-1.522 Y-0.5409
N16275 X-1.5089 Y-0.5434
N16280 X-1.4958 Y-0.5455
N16285 X-1.4828 Y-0.5469
N16290 X-1.4699 Y-0.5478
N16295 X-1.4572 Y-0.5482
N16300 X-1.4448 Y-0.5481
N16305 X-1.4326 Y-0.5475
N16310 X-1.4207 Y-0.5464
N16315 X-1.4103 Y-0.545
N16320 X-1.3998 Y-0.5431
N16325 X-1.3894 Y-0.5409
N16330 X-1.3805 Y-0.5385
N16335 X-1.3717 Y-0.5359
N16340 X-1.3625 Y-0.5326
N16345 X-1.3546 Y-0.5295
N16350 X-1.3472 Y-0.5262
N16355 X-1.3391 Y-0.5222
N16360 X-1.3233 Y-0.5119
N16365 X-1.3093 Y-0.4994
N16370 X-1.2973 Y-0.4848
N16375 X-1.2877 Y-0.4686
N16380 X-1.2807 Y-0.4512
N16385 X-1.2764 Y-0.4328
N16390 X-1.275 Y-0.4141
N16395 Y-0.3675
N16400 G3 X-1.3231 Y-0.3193 I-0.05 J-0.0017
N16405 G1 X-1.6732 Y-0.3064
N16410 G3 X-1.725 Y-0.3546 I-0.0018 J-0.05
N16415 G1 Y-0.4016
N16420 X-1.7247 Y-0.4076
N16425 X-1.7241 Y-0.4135
N16430 X-1.723 Y-0.4195
N16435 X-1.7217 Y-0.4253
N16440 X-1.7201 Y-0.4311
N16445 X-1.7182 Y-0.4368
N16450 X-1.7161 Y-0.4424
N16455 X-1.7136 Y-0.4483
N16460 X-1.7106 Y-0.4546
N16465 X-1.7073 Y-0.4609
N16470 X-1.7035 Y-0.4674
N16475 X-1.6993 Y-0.4741
N16480 X-1.6945 Y-0.4811
N16485 X-1.6892 Y-0.488
N16490 X-1.6835 Y-0.495
N16495 X-1.6771 Y-0.5021
N16500 X-1.6702 Y-0.5093
N16505 X-1.6627 Y-0.5164
N16510 X-1.6547 Y-0.5234
N16515 X-1.6462 Y-0.5303
N16520 X-1.6371 Y-0.5371
N16525 X-1.6273 Y-0.5437
N16530 X-1.6171 Y-0.5501
N16535 X-1.6063 Y-0.5562
N16540 X-1.5951 Y-0.5619
N16545 X-1.5835 Y-0.5673
N16550 X-1.5716 Y-0.5723
N16555 X-1.5592 Y-0.5768
N16560 X-1.5466 Y-0.5808
N16565 X-1.5338 Y-0.5844
N16570 X-1.5207 Y-0.5875
N16575 X-1.5076 Y-0.59
N16580 X-1.4946 Y-0.5919
N16585 X-1.4816 Y-0.5933
N16590 X-1.4688 Y-0.5942
N16595 X-1.4561 Y-0.5945
N16600 X-1.4437 Y-0.5943
N16605 X-1.4316 Y-0.5936
N16610 X-1.4197 Y-0.5925
N16615 X-1.4093 Y-0.5911
N16620 X-1.3988 Y-0.5892
N16625 X-1.3884 Y-0.5868
N16630 X-1.3796 Y-0.5845
N16635 X-1.3707 Y-0.5817
N16640 X-1.3615 Y-0.5785
N16645 X-1.3537 Y-0.5753
N16650 X-1.3463 Y-0.572
N16655 X-1.3382 Y-0.5679
N16660 X-1.3226 Y-0.5577
N16665 X-1.3088 Y-0.5452
N16670 X-1.297 Y-0.5308
N16675 X-1.2875 Y-0.5148
N16680 X-1.2806 Y-0.4975
N16685 X-1.2764 Y-0.4794
N16690 X-1.275 Y-0.4608
N16695 Y-0.4141
N16700 G3 X-1.3232 Y-0.3659 I-0.05 J-0.0017
N16705 G1 X-1.6732 Y-0.3534
N16710 G3 X-1.725 Y-0.4016 I-0.0018 J-0.05
N16715 G1 Y-0.4465
N16720 X-1.7247 Y-0.4526
N16725 X-1.7242 Y-0.4585
N16730 X-1.7232 Y-0.4645
N16735 X-1.722 Y-0.4703
N16740 X-1.7204 Y-0.4761
N16745 X-1.7186 Y-0.4819
N16750 X-1.7166 Y-0.4875
N16755 X-1.7141 Y-0.4934
N16760 X-1.7113 Y-0.4995
N16765 X-1.7081 Y-0.5057
N16770 X-1.7044 Y-0.5123
N16775 X-1.7002 Y-0.519
N16780 X-1.6956 Y-0.5258
N16785 X-1.6905 Y-0.5327
N16790 X-1.6848 Y-0.5398
N16795 X-1.6785 Y-0.5469
N16800 X-1.6718 Y-0.554
N16805 X-1.6645 Y-0.5611
N16810 X-1.6567 Y-0.5681
N16815 X-1.6482 Y-0.575
N16820 X-1.6391 Y-0.5819
N16825 X-1.6296 Y-0.5886
N16830 X-1.6195 Y-0.5949
N16835 X-1.609 Y-0.601
N16840 X-1.598 Y-0.6068
N16845 X-1.5865 Y-0.6123
N16850 X-1.5746 Y-0.6174
N16855 X-1.5623 Y-0.622
N16860 X-1.5497 Y-0.6262
N16865 X-1.5369 Y-0.6299
N16870 X-1.5239 Y-0.6331
N16875 X-1.5109 Y-0.6357
N16880 X-1.4978 Y-0.6378
N16885 X-1.4848 Y-0.6393
N16890 X-1.4719 Y-0.6403
N16895 X-1.4592 Y-0.6407
N16900 X-1.4466 Y-0.6406
N16905 X-1.4344 Y-0.6401
N16910 X-1.4224 Y-0.639
N16915 X-1.4114 Y-0.6376
N16920 X-1.4014 Y-0.6359
N16925 X-1.3905 Y-0.6336
N16930 X-1.3812 Y-0.6312
N16935 X-1.3727 Y-0.6287
N16940 X-1.3634 Y-0.6254
N16945 X-1.3552 Y-0.6222
N16950 X-1.3479 Y-0.619
N16955 X-1.3398 Y-0.6151
N16960 X-1.3239 Y-0.6048
N16965 X-1.3097 Y-0.5922
N16970 X-1.2976 Y-0.5776
N16975 X-1.2879 Y-0.5613
N16980 X-1.2808 Y-0.5438
N16985 X-1.2765 Y-0.5253
N16990 X-1.275 Y-0.5064
N16995 Y-0.4608
N17000 G3 X-1.3229 Y-0.4126 I-0.05 J-0.0017
N17005 G1 X-1.673 Y-0.3983
N17010 G3 X-1.725 Y-0.4465 I-0.002 J-0.05
N17015 G1 Y-0.4915
N17020 X-1.7246 Y-0.4989
N17025 X-1.7241 Y-0.5049
N17030 X-1.7232 Y-0.5108
N17035 X-1.7219 Y-0.5167
N17040 X-1.7204 Y-0.5225
N17045 X-1.7186 Y-0.5282
N17050 X-1.7165 Y-0.5338
N17055 X-1.7141 Y-0.5397
N17060 X-1.7112 Y-0.5459
N17065 X-1.708 Y-0.5522
N17070 X-1.7043 Y-0.5586
N17075 X-1.7002 Y-0.5654
N17080 X-1.6955 Y-0.5722
N17085 X-1.6904 Y-0.5791
N17090 X-1.6848 Y-0.5861
N17095 X-1.6786 Y-0.5932
N17100 X-1.6718 Y-0.6003
N17105 X-1.6645 Y-0.6074
N17110 X-1.6567 Y-0.6144
N17115 X-1.6483 Y-0.6213
N17120 X-1.6393 Y-0.6281
N17125 X-1.6297 Y-0.6348
N17130 X-1.6195 Y-0.6412
N17135 X-1.609 Y-0.6473
N17140 X-1.5979 Y-0.6531
N17145 X-1.5865 Y-0.6586
N17150 X-1.5746 Y-0.6636
N17155 X-1.5624 Y-0.6683
N17160 X-1.5499 Y-0.6724
N17165 X-1.5371 Y-0.6761
N17170 X-1.524 Y-0.6793
N17175 X-1.5109 Y-0.6819
N17180 X-1.4979 Y-0.684
N17185 X-1.4848 Y-0.6856
N17190 X-1.4719 Y-0.6865
N17195 X-1.4591 Y-0.687
N17200 X-1.4466 Y-0.6869
N17205 X-1.4343 Y-0.6864
N17210 X-1.4224 Y-0.6853
N17215 X-1.4117 Y-0.6839
N17220 X-1.4014 Y-0.6822
N17225 X-1.3907 Y-0.6799
N17230 X-1.3816 Y-0.6776
N17235 X-1.373 Y-0.675
N17240 X-1.3636 Y-0.6718
N17245 X-1.3556 Y-0.6686
N17250 X-1.3482 Y-0.6654
N17255 X-1.34 Y-0.6614
N17260 X-1.324 Y-0.6511
N17265 X-1.3098 Y-0.6385
N17270 X-1.2977 Y-0.6238
N17275 X-1.2879 Y-0.6075
N17280 X-1.2808 Y-0.5898
N17285 X-1.2765 Y-0.5713
N17290 X-1.275 Y-0.5523
N17295 Y-0.5064
N17300 G3 X-1.3228 Y-0.4582 I-0.05 J-0.0017
N17305 G1 X-1.6729 Y-0.4433
N17310 G3 X-1.725 Y-0.4915 I-0.0021 J-0.05
N17315 G1 Y-0.5401
N17320 X-1.7247 Y-0.5461
N17325 X-1.7243 Y-0.5521
N17330 X-1.7235 Y-0.5581
N17335 X-1.7224 Y-0.564
N17340 X-1.721 Y-0.5698
N17345 X-1.7193 Y-0.5756
N17350 X-1.7173 Y-0.5812
N17355 X-1.7152 Y-0.5868
N17360 X-1.7127 Y-0.5923
N17365 X-1.7101 Y-0.5977
N17370 X-1.7073 Y-0.603
N17375 X-1.7044 Y-0.6082
N17380 X-1.7012 Y-0.6133
N17385 X-1.6979 Y-0.6184
N17390 X-1.6945 Y-0.6233
N17395 X-1.6909 Y-0.6281
N17400 X-1.6872 Y-0.6328
N17405 X-1.6833 Y-0.6374
N17410 X-1.6794 Y-0.6419
N17415 X-1.6753 Y-0.6463
N17420 X-1.6711 Y-0.6506
N17425 X-1.6668 Y-0.6548
N17430 X-1.6624 Y-0.6589
N17435 X-1.6579 Y-0.6628
N17440 X-1.6533 Y-0.6667
N17445 X-1.6487 Y-0.6705
N17450 X-1.6439 Y-0.6741
N17455 X-1.6391 Y-0.6777
N17460 X-1.6342 Y-0.6812
N17465 X-1.6292 Y-0.6845
N17470 X-1.6242 Y-0.6878
N17475 X-1.619 Y-0.6909
N17480 X-1.6139 Y-0.694
N17485 X-1.6086 Y-0.6969
N17490 X-1.6034 Y-0.6997
N17495 X-1.598 Y-0.7025
N17500 X-1.5926 Y-0.7051
N17505 X-1.5872 Y-0.7076
N17510 X-1.5817 Y-0.71
N17515 X-1.5762 Y-0.7123
N17520 X-1.5706 Y-0.7146
N17525 X-1.565 Y-0.7167
N17530 X-1.5593 Y-0.7187
N17535 X-1.5536 Y-0.7206
N17540 X-1.5479 Y-0.7223
N17545 X-1.5421 Y-0.724
N17550 X-1.5363 Y-0.7256
N17555 X-1.5305 Y-0.7271
N17560 X-1.5247 Y-0.7285
N17565 X-1.5188 Y-0.7297
N17570 X-1.5129 Y-0.7309
N17575 X-1.507 Y-0.7319
N17580 X-1.5011 Y-0.7328
N17585 X-1.4951 Y-0.7337
N17590 X-1.4892 Y-0.7344
N17595 X-1.4832 Y-0.735
N17600 X-1.4772 Y-0.7355
N17605 X-1.4712 Y-0.7359
N17610 X-1.4653 Y-0.7361
N17615 X-1.4593 Y-0.7363
N17620 X-1.4533
N17625 X-1.4473 Y-0.7362
N17630 X-1.4413 Y-0.736
N17635 X-1.4353 Y-0.7357
N17640 X-1.4293 Y-0.7353
N17645 X-1.4233 Y-0.7347
N17650 X-1.4173 Y-0.7341
N17655 X-1.4114 Y-0.7332
N17660 X-1.4055 Y-0.7323
N17665 X-1.3996 Y-0.7312
N17670 X-1.3937 Y-0.73
N17675 X-1.3879 Y-0.7286
N17680 X-1.382 Y-0.7271
N17685 X-1.3763 Y-0.7255
N17690 X-1.3706 Y-0.7237
N17695 X-1.3649 Y-0.7217
N17700 X-1.3593 Y-0.7196
N17705 X-1.3537 Y-0.7174
N17710 X-1.3482 Y-0.715
N17715 X-1.3428 Y-0.7124
N17720 X-1.3387 Y-0.7104
N17725 X-1.3231 Y-0.7009
N17730 X-1.3092 Y-0.6891
N17735 X-1.2973 Y-0.6752
N17740 X-1.2877 Y-0.6596
N17745 X-1.2807 Y-0.6428
N17750 X-1.2764 Y-0.625
N17755 X-1.275 Y-0.6068
N17760 Y-0.5523
N17765 G3 X-1.3232 Y-0.5041 I-0.05 J-0.0017
N17770 G1 X-1.6733 Y-0.4919
N17775 G3 X-1.725 Y-0.5401 I-0.0017 J-0.05
N17780 G1 Y-0.5888
N17785 X-1.7244 Y-0.6008
N17790 X-1.7237 Y-0.6067
N17795 X-1.7226 Y-0.6127
N17800 X-1.7212 Y-0.6185
N17805 X-1.7196 Y-0.6243
N17810 X-1.7176 Y-0.6299
N17815 X-1.7155 Y-0.6355
N17820 X-1.7131 Y-0.6411
N17825 X-1.7105 Y-0.6465
N17830 X-1.7078 Y-0.6518
N17835 X-1.7048 Y-0.657
N17840 X-1.7017 Y-0.6621
N17845 X-1.6984 Y-0.6672
N17850 X-1.695 Y-0.6721
N17855 X-1.6914 Y-0.6769
N17860 X-1.6877 Y-0.6816
N17865 X-1.6839 Y-0.6862
N17870 X-1.6799 Y-0.6907
N17875 X-1.6758 Y-0.6952
N17880 X-1.6716 Y-0.6995
N17885 X-1.6674 Y-0.7037
N17890 X-1.663 Y-0.7077
N17895 X-1.6585 Y-0.7117
N17900 X-1.6539 Y-0.7156
N17905 X-1.6493 Y-0.7194
N17910 X-1.6445 Y-0.7231
N17915 X-1.6397 Y-0.7267
N17920 X-1.6348 Y-0.7301
N17925 X-1.6298 Y-0.7335
N17930 X-1.6189 Y-0.7414
N17935 X-1.6086 Y-0.7499
N17940 X-1.5988 Y-0.7592
N17945 X-1.5897 Y-0.7691
N17950 X-1.5813 Y-0.7796
N17955 X-1.5736 Y-0.7906
N17960 X-1.5667 Y-0.8021
N17965 X-1.5605 Y-0.8141
N17970 X-1.5552 Y-0.8264
N17975 X-1.553 Y-0.8328
N17980 X-1.5519 Y-0.836
N17985 X-1.5481 Y-0.8489
N17990 X-1.5289 Y-0.8445
N17995 X-1.5109 Y-0.8403
N18000 X-1.4985 Y-0.8373
N18005 X-1.4868 Y-0.8344
N18010 X-1.4752 Y-0.8314
N18015 X-1.4636 Y-0.8283
N18020 X-1.4521 Y-0.825
N18025 X-1.4463 Y-0.8233
N18030 X-1.4406 Y-0.8216
N18035 X-1.4349 Y-0.8198
N18040 X-1.4292 Y-0.8179
N18045 X-1.4235 Y-0.816
N18050 X-1.4178 Y-0.8141
N18055 X-1.4121 Y-0.8121
N18060 X-1.4065 Y-0.81
N18065 X-1.4009 Y-0.8079
N18070 X-1.3953 Y-0.8057
N18075 X-1.3898 Y-0.8034
N18080 X-1.3843 Y-0.801
N18085 X-1.3788 Y-0.7986
N18090 X-1.3733 Y-0.796
N18095 X-1.3679 Y-0.7934
N18100 X-1.3626 Y-0.7907
N18105 X-1.3573 Y-0.7879
N18110 X-1.352 Y-0.785
N18115 X-1.3468 Y-0.782
N18120 X-1.3417 Y-0.7789
N18125 X-1.3366 Y-0.7757
N18130 X-1.3321 Y-0.7727
N18135 X-1.3178 Y-0.7618
N18140 X-1.3053 Y-0.7491
N18145 X-1.2947 Y-0.7346
N18150 X-1.2862 Y-0.7189
N18155 X-1.28 Y-0.7021
N18160 X-1.2763 Y-0.6846
N18165 X-1.275 Y-0.6668
N18170 Y-0.6068
N18175 G3 X-1.3224 Y-0.5586 I-0.05 J-0.0017
N18180 G1 X-1.6725 Y-0.5406
N18185 G3 X-1.725 Y-0.5888 I-0.0026 J-0.0499
N18190 G1 Y-0.6368
N18195 X-1.7243 Y-0.6504
N18200 X-1.7236 Y-0.6563
N18205 X-1.7225 Y-0.6622
N18210 X-1.7211 Y-0.6681
N18215 X-1.7195 Y-0.6738
N18220 X-1.7175 Y-0.6795
N18225 X-1.7154 Y-0.6851
N18230 X-1.713 Y-0.6906
N18235 X-1.6898 Y-0.7392
N18240 X-1.6846 Y-0.7515
N18245 X-1.6802 Y-0.7643
N18250 X-1.6767 Y-0.7772
N18255 X-1.674 Y-0.7904
N18260 X-1.6723 Y-0.8037
N18265 X-1.6714 Y-0.8172
N18270 Y-0.8306
N18275 X-1.6724 Y-0.844
N18280 X-1.6742 Y-0.8573
N18285 X-1.677 Y-0.8705
N18290 X-1.6806 Y-0.8835
N18295 X-1.6851 Y-0.8961
N18300 X-1.6904 Y-0.9085
N18305 X-1.6965 Y-0.9204
N18310 X-1.7064 Y-0.9369
N18315 X-1.7144 Y-0.9525
N18320 X-1.7203 Y-0.9691
N18325 X-1.7238 Y-0.9863
N18330 X-1.725 Y-1.0038
N18335 G3 X-1.7147 Y-1.0325 I0.05 J0.0017
N18340 G1 X-1.7113 Y-1.0369 Z4.8909
N18345 X-1.708 Y-1.0413 Z4.8918
N18350 X-1.7047 Y-1.0456 Z4.8934
N18355 X-1.7015 Y-1.0497 Z4.8955
N18360 X-1.6986 Y-1.0536 Z4.8982
N18365 X-1.6958 Y-1.0572 Z4.9015
N18370 X-1.6932 Y-1.0606 Z4.9052
N18375 X-1.691 Y-1.0635 Z4.9094
N18380 X-1.689 Y-1.0661 Z4.9139
N18385 X-1.6874 Y-1.0682 Z4.9189
N18390 X-1.686 Y-1.07 Z4.924
N18395 X-1.6851 Y-1.0712 Z4.9294
N18400 X-1.6845 Y-1.0719 Z4.935
N18405 X-1.6843 Y-1.0722 Z4.9406
N18410 G0 Z6.3406
N18415 X-1.6907 Y-0.5641
N18420 Z4.9906
N18425 G1 Z4.9406 F111.727
N18430 X-1.6909 Y-0.5644 Z4.935
N18435 X-1.6914 Y-0.5652 Z4.9294
N18440 X-1.6922 Y-0.5666 Z4.924
N18445 X-1.6933 Y-0.5684 Z4.9189
N18450 X-1.6947 Y-0.5707 Z4.9139
N18455 X-1.6963 Y-0.5735 Z4.9094
N18460 X-1.6982 Y-0.5767 Z4.9052
N18465 X-1.7004 Y-0.5803 Z4.9015
N18470 X-1.7027 Y-0.5843 Z4.8982
N18475 X-1.7052 Y-0.5885 Z4.8955
N18480 X-1.7078 Y-0.5929 Z4.8934
N18485 X-1.7106 Y-0.5976 Z4.8918
N18490 X-1.7134 Y-0.6023 Z4.8909
N18495 X-1.7163 Y-0.6071 Z4.8906
N18500 G3 X-1.725 Y-0.6368 I0.0536 J-0.0318
N18505 G1 Y-0.9747
N18510 G3 X-1.7029 Y-1.0144 I0.05 J0.0017
N18515 G1 X-1.3528 Y-1.249
N18520 G3 X-1.275 Y-1.2092 I0.0278 J0.0415
N18525 G1 Y-0.6668
N18530 G3 X-1.2853 Y-0.6381 I-0.05 J-0.0017
N18535 G1 X-1.2887 Y-0.6337 Z4.8909
N18540 X-1.292 Y-0.6293 Z4.8918
N18545 X-1.2953 Y-0.625 Z4.8934
N18550 X-1.2985 Y-0.6209 Z4.8955
N18555 X-1.3014 Y-0.617 Z4.8982
N18560 X-1.3042 Y-0.6133 Z4.9015
N18565 X-1.3068 Y-0.61 Z4.9052
N18570 X-1.309 Y-0.6071 Z4.9094
N18575 X-1.311 Y-0.6045 Z4.9139
N18580 X-1.3126 Y-0.6023 Z4.9189
N18585 X-1.314 Y-0.6006 Z4.924
N18590 X-1.3149 Y-0.5994 Z4.9294
N18595 X-1.3155 Y-0.5987 Z4.935
N18600 X-1.3157 Y-0.5984 Z4.9406
N18605 G0 Z6.3406
N18610 X1.5425 Y1.4793
N18615 Z4.9906
N18620 G1 Z4.9406 F111.727
N18625 X1.5424 Y1.479 Z4.935
N18630 X1.5422 Y1.4781 Z4.9294
N18635 X1.5418 Y1.4766 Z4.924
N18640 X1.5413 Y1.4745 Z4.9189
N18645 X1.5406 Y1.4719 Z4.9139
N18650 X1.5398 Y1.4687 Z4.9094
N18655 X1.5389 Y1.4651 Z4.9052
N18660 X1.5378 Y1.4611 Z4.9015
N18665 X1.5367 Y1.4566 Z4.8982
N18670 X1.5355 Y1.4519 Z4.8955
N18675 X1.5342 Y1.4469 Z4.8934
N18680 X1.5329 Y1.4416 Z4.8918
N18685 X1.5315 Y1.4363 Z4.8909
N18690 X1.5301 Y1.4309 Z4.8906
N18695 G3 X1.5007 Y1.2267 I0.9274 J-0.2376
N18700 G1 Y1.2233
N18705 X1.5054 Y1.2196
N18710 X1.5104 Y1.2163
N18715 X1.5156 Y1.2132
N18720 X1.5218 Y1.2099
N18725 X1.5295 Y1.2062
N18730 X1.539 Y1.2022
N18735 X1.5506 Y1.1977
N18740 X1.565 Y1.1929
N18745 X1.5828 Y1.1877
N18750 X1.6052 Y1.1822
N18755 X1.6341 Y1.1763
N18760 X1.6491 Y1.1753
N18765 X1.664 Y1.1772
N18770 X1.6783 Y1.182
N18775 X1.6914 Y1.1894
N18780 X1.7029 Y1.1991
N18785 X1.7123 Y1.2109
N18790 X1.7193 Y1.2243
N18795 X1.7236 Y1.2387
N18800 X1.725 Y1.2537
N18805 G3 X1.7047 Y1.2939 I-0.05 J0.
N18810 G1 X1.453 Y1.4796
N18815 G3 X1.3893 Y1.476 I-0.0297 J-0.0402
N18820 X1.275 Y1.2258 I0.2441 J-0.2627
N18825 G1 Y1.2211
N18830 X1.2751 Y1.2195
N18835 X1.2801 Y1.2162
N18840 X1.2853 Y1.2131
N18845 X1.2915 Y1.2098
N18850 X1.2993 Y1.2062
N18855 X1.3088 Y1.2021
N18860 X1.3205 Y1.1976
N18865 X1.3715 Y1.1805
N18870 X1.4223 Y1.1629
N18875 X1.4735 Y1.1463
N18880 X1.5036 Y1.1377
N18885 X1.5256 Y1.1324
N18890 X1.5417 Y1.1292
N18895 X1.5574 Y1.1267
N18900 X1.57 Y1.1253
N18905 X1.5812 Y1.1244
N18910 X1.5928 Y1.1241
N18915 X1.6026
N18920 X1.6112 Y1.1246
N18925 X1.6241 Y1.1257
N18930 X1.642 Y1.1288
N18935 X1.6592 Y1.1348
N18940 X1.6752 Y1.1436
N18945 X1.6895 Y1.1548
N18950 X1.7018 Y1.1683
N18955 X1.7118 Y1.1836
N18960 X1.719 Y1.2003
N18965 X1.7235 Y1.218
N18970 X1.725 Y1.2361
N18975 G3 X1.6729 Y1.2843 I-0.05 J-0.0017
N18980 G1 X1.3228 Y1.2693
N18985 G3 X1.275 Y1.2211 I0.0021 J-0.05
N18990 G1 Y1.2048
N18995 X1.2751 Y1.2036
N19000 X1.279 Y1.1991
N19005 X1.2838 Y1.194
N19010 X1.2902 Y1.1878
N19015 X1.2983 Y1.1806
N19020 X1.3083 Y1.1724
N19025 X1.3199 Y1.1637
N19030 X1.3344 Y1.1536
N19035 X1.3508 Y1.1432
N19040 X1.3693 Y1.1324
N19045 X1.3887 Y1.1222
N19050 X1.4081 Y1.113
N19055 X1.4275 Y1.1048
N19060 X1.4463 Y1.0977
N19065 X1.4644 Y1.0916
N19070 X1.4816 Y1.0867
N19075 X1.4978 Y1.0827
N19080 X1.5137 Y1.0795
N19085 X1.5284 Y1.0772
N19090 X1.5426 Y1.0755
N19095 X1.5542 Y1.0747
N19100 X1.5662 Y1.0742
N19105 X1.5774 Y1.0743
N19110 X1.587 Y1.0748
N19115 X1.5969 Y1.0756
N19120 X1.6067 Y1.0769
N19125 X1.6152 Y1.0783
N19130 X1.6232 Y1.0801
N19135 X1.6321 Y1.0823
N19140 X1.6331 Y1.0826
N19145 X1.6502 Y1.0891
N19150 X1.6663 Y1.098
N19155 X1.6809 Y1.109
N19160 X1.6938 Y1.122
N19165 X1.7047 Y1.1367
N19170 X1.7135 Y1.1528
N19175 X1.7198 Y1.17
N19180 X1.7237 Y1.1879
N19185 X1.725 Y1.2061
N19190 G3 X1.6748 Y1.2544 I-0.05 J-0.0017
N19195 G1 X1.3248 Y1.253
N19200 G3 X1.275 Y1.2048 I0.0002 J-0.05
N19205 G1 Y1.1792
N19210 X1.2753 Y1.1739
N19215 X1.2789 Y1.168
N19220 X1.2835 Y1.1612
N19225 X1.2885 Y1.1544
N19230 X1.2945 Y1.1469
N19235 X1.3011 Y1.1393
N19240 X1.3087 Y1.1312
N19245 X1.3173 Y1.1228
N19250 X1.3265 Y1.1146
N19255 X1.3368 Y1.1061
N19260 X1.3481 Y1.0975
N19265 X1.36 Y1.0891
N19270 X1.3726 Y1.081
N19275 X1.3859 Y1.0733
N19280 X1.3997 Y1.0659
N19285 X1.414 Y1.0591
N19290 X1.4287 Y1.0528
N19295 X1.4432 Y1.0472
N19300 X1.4579 Y1.0423
N19305 X1.4723 Y1.0381
N19310 X1.4864 Y1.0346
N19315 X1.5002 Y1.0318
N19320 X1.5137 Y1.0296
N19325 X1.5269 Y1.028
N19330 X1.5397 Y1.027
N19335 X1.5508 Y1.0265
N19340 X1.5629 Y1.0266
N19345 X1.5735 Y1.027
N19350 X1.5832 Y1.0278
N19355 X1.5938 Y1.0291
N19360 X1.6029 Y1.0307
N19365 X1.6116 Y1.0325
N19370 X1.621 Y1.0349
N19375 X1.6292 Y1.0373
N19380 X1.6369 Y1.0399
N19385 X1.6453 Y1.0432
N19390 X1.6528 Y1.0464
N19395 X1.6683 Y1.0553
N19400 X1.6824 Y1.0663
N19405 X1.6949 Y1.0792
N19410 X1.7054 Y1.0937
N19415 X1.7139 Y1.1095
N19420 X1.72 Y1.1263
N19425 X1.7237 Y1.1438
N19430 X1.725 Y1.1617
N19435 G3 X1.6775 Y1.2099 I-0.05 J-0.0017
N19440 G1 X1.3275 Y1.2274
N19445 G3 X1.275 Y1.1792 I-0.0025 J-0.0499
N19450 G1 Y1.1462
N19455 X1.2753 Y1.1402
N19460 X1.2778 Y1.1345
N19465 X1.2807 Y1.1285
N19470 X1.2841 Y1.1221
N19475 X1.288 Y1.1155
N19480 X1.2924 Y1.1086
N19485 X1.2975 Y1.1013
N19490 X1.3032 Y1.094
N19495 X1.3094 Y1.0865
N19500 X1.3164 Y1.0788
N19505 X1.3242 Y1.0709
N19510 X1.3325 Y1.0631
N19515 X1.3414 Y1.0554
N19520 X1.3511 Y1.0477
N19525 X1.3615 Y1.0401
N19530 X1.3725 Y1.0327
N19535 X1.384 Y1.0257
N19540 X1.396 Y1.019
N19545 X1.4083 Y1.0128
N19550 X1.4211 Y1.007
N19555 X1.4341 Y1.0017
N19560 X1.4472 Y0.997
N19565 X1.4605 Y0.9928
N19570 X1.4737 Y0.9893
N19575 X1.4869 Y0.9863
N19580 X1.4999 Y0.9839
N19585 X1.5128 Y0.9821
N19590 X1.5255 Y0.9808
N19595 X1.538 Y0.9801
N19600 X1.5502 Y0.9798
N19605 X1.5623 Y0.9801
N19610 X1.5737 Y0.9808
N19615 X1.5838 Y0.9819
N19620 X1.5948 Y0.9835
N19625 X1.6044 Y0.9853
N19630 X1.6133 Y0.9874
N19635 X1.623 Y0.99
N19640 X1.6313 Y0.9927
N19645 X1.6392 Y0.9955
N19650 X1.6478 Y0.999
N19655 X1.6552 Y1.0025
N19660 X1.6621 Y1.006
N19665 X1.6776 Y1.0163
N19670 X1.6914 Y1.0289
N19675 X1.7031 Y1.0434
N19680 X1.7125 Y1.0594
N19685 X1.7194 Y1.0768
N19690 X1.7236 Y1.0949
N19695 X1.725 Y1.1135
N19700 G3 X1.6797 Y1.1615 I-0.05 J-0.0017
N19705 G1 X1.3296 Y1.1943
N19710 G3 X1.275 Y1.1462 I-0.0047 J-0.0498
N19715 G1 Y1.1117
N19720 X1.2753 Y1.1057
N19725 X1.2769 Y1.0999
N19730 X1.2788 Y1.0943
N19735 X1.281 Y1.0887
N19740 X1.2836 Y1.0827
N19745 X1.2866 Y1.0765
N19750 X1.29 Y1.0702
N19755 X1.2939 Y1.0635
N19760 X1.2984 Y1.0565
N19765 X1.3033 Y1.0495
N19770 X1.3088 Y1.0423
N19775 X1.315 Y1.0349
N19780 X1.3217 Y1.0275
N19785 X1.3289 Y1.0201
N19790 X1.3368 Y1.0128
N19795 X1.3453 Y1.0054
N19800 X1.3545 Y0.9981
N19805 X1.3642 Y0.991
N19810 X1.3744 Y0.9841
N19815 X1.3851 Y0.9776
N19820 X1.3963 Y0.9714
N19825 X1.4078 Y0.9655
N19830 X1.4198 Y0.9601
N19835 X1.4322 Y0.9551
N19840 X1.4448 Y0.9505
N19845 X1.4576 Y0.9465
N19850 X1.4706 Y0.943
N19855 X1.4836 Y0.94
N19860 X1.4967 Y0.9376
N19865 X1.5096 Y0.9358
N19870 X1.5224 Y0.9345
N19875 X1.535 Y0.9338
N19880 X1.5474 Y0.9335
N19885 X1.5596 Y0.9338
N19890 X1.5716 Y0.9345
N19895 X1.5832 Y0.9358
N19900 X1.5933 Y0.9372
N19905 X1.6036 Y0.9392
N19910 X1.6138 Y0.9415
N19915 X1.6225 Y0.9439
N19920 X1.6312 Y0.9467
N19925 X1.6402 Y0.9499
N19930 X1.648 Y0.9531
N19935 X1.6553 Y0.9565
N19940 X1.6633 Y0.9606
N19945 X1.6785 Y0.9707
N19950 X1.692 Y0.983
N19955 X1.7035 Y0.9972
N19960 X1.7128 Y1.013
N19965 X1.7195 Y1.03
N19970 X1.7236 Y1.0478
N19975 X1.725 Y1.066
N19980 G3 X1.6815 Y1.1138 I-0.05 J-0.0017
N19985 G1 X1.3314 Y1.1595
N19990 G3 X1.275 Y1.1117 I-0.0065 J-0.0496
N19995 G1 Y1.0727
N20000 X1.2753 Y1.0667
N20005 X1.2765 Y1.0608
N20010 X1.2779 Y1.055
N20015 X1.2797 Y1.0492
N20020 X1.2817 Y1.0436
N20025 X1.284 Y1.0378
N20030 X1.2868 Y1.0318
N20035 X1.29 Y1.0254
N20040 X1.2936 Y1.0188
N20045 X1.2977 Y1.0122
N20050 X1.3023 Y1.0053
N20055 X1.3074 Y0.9982
N20060 X1.3131 Y0.991
N20065 X1.3192 Y0.9839
N20070 X1.3259 Y0.9767
N20075 X1.3333 Y0.9694
N20080 X1.3413 Y0.9622
N20085 X1.3497 Y0.9551
N20090 X1.3587 Y0.9482
N20095 X1.3682 Y0.9414
N20100 X1.3784 Y0.9348
N20105 X1.389 Y0.9285
N20110 X1.4002 Y0.9225
N20115 X1.4118 Y0.9169
N20120 X1.4237 Y0.9117
N20125 X1.4359 Y0.9069
N20130 X1.4485 Y0.9026
N20135 X1.4612 Y0.8988
N20140 X1.4742 Y0.8956
N20145 X1.4872 Y0.8928
N20150 X1.5003 Y0.8906
N20155 X1.5132 Y0.889
N20160 X1.5261 Y0.8879
N20165 X1.5387 Y0.8873
N20170 X1.5512
N20175 X1.5635 Y0.8877
N20180 X1.5754 Y0.8887
N20185 X1.587 Y0.8901
N20190 X1.597 Y0.8917
N20195 X1.6077 Y0.8939
N20200 X1.6175 Y0.8963
N20205 X1.6259 Y0.8987
N20210 X1.6351 Y0.9018
N20215 X1.6437 Y0.9051
N20220 X1.6511 Y0.9082
N20225 X1.6588 Y0.9119
N20230 X1.6751 Y0.9222
N20235 X1.6896 Y0.9349
N20240 X1.7019 Y0.9496
N20245 X1.7118 Y0.9661
N20250 X1.7191 Y0.9839
N20255 X1.7235 Y1.0026
N20260 X1.725 Y1.0218
N20265 G3 X1.6822 Y1.0695 I-0.05 J-0.0017
N20270 G1 X1.3322 Y1.1204
N20275 G3 X1.275 Y1.0727 I-0.0072 J-0.0495
N20280 G1 Y1.0331
N20285 X1.2753 Y1.0271
N20290 X1.276 Y1.0211
N20295 X1.2771 Y1.0152
N20300 X1.2785 Y1.0094
N20305 X1.2801 Y1.0036
N20310 X1.2821 Y0.998
N20315 X1.2843 Y0.9921
N20320 X1.2869 Y0.9861
N20325 X1.2899 Y0.98
N20330 X1.2934 Y0.9736
N20335 X1.2973 Y0.9669
N20340 X1.3017 Y0.9601
N20345 X1.3065 Y0.9533
N20350 X1.3119 Y0.9462
N20355 X1.318 Y0.939
N20360 X1.3244 Y0.9319
N20365 X1.3314 Y0.9248
N20370 X1.339 Y0.9177
N20375 X1.3473 Y0.9106
N20380 X1.3561 Y0.9037
N20385 X1.3654 Y0.8969
N20390 X1.3752 Y0.8904
N20395 X1.3855 Y0.8841
N20400 X1.3963 Y0.8781
N20405 X1.4076 Y0.8724
N20410 X1.4193 Y0.8671
N20415 X1.4315 Y0.8622
N20420 X1.4439 Y0.8577
